(.../EAGLE-7.5.0/pcb-gcode/pcb-gcode.ulp)
(Copyright 2005 - 2012 by John Johnson)
(See readme.txt for licensing terms.)
(This file generated from the board:)
(.../eagle/comando serra/serra1.brd)
(Current profile is .../EAGLE-7.5.0/pcb-gcode/profiles/emc.pp  )
(This file generated 29/03/2017 12:51)
(Settings from pcb-machine.h)
(spindle on time = 3.0000)
(  Tool Size)
(0.2000 )
(spindle speed = 30000.0000)
(tool change at 0.0000 0.0000 25.4000 )
(feed rate xy = F508.00 )
(feed rate z  = F254.00 )
(Z Axis Settings)
(  High     Up        Down     Drill)
(10.0000 	2.5400 	-0.2500 	-1.9000 )
(Settings from pcb-defaults.h)
(isolate min = 0.0100)
(isolate max = 0.8000)
(isolate step = 0.1000)
(Generated bottom outlines, bottom drill, )
(Unit of measure: mm)
(Metric Mode)
G21
(Absolute Coordinates)
G90
S30000
G00 Z10.0000 
G00 X0.0000 Y0.0000 
M03
G04 P3.000000
G00 Z2.5400 
G00 X-3.0142 Y3.6983 
G01 Z-0.2500 F254.00 
G01 X-4.9683 Y1.7442 F508.00 
G01 X-7.7317 Y1.7442 
G01 X-9.6858 Y3.6983 
G01 X-9.6858 Y6.4617 
G01 X-7.7317 Y8.4158 
G01 X-4.9683 Y8.4158 
G01 X-3.0142 Y6.4617 
G01 X-3.0142 Y3.6983 
G00 Z2.5400 
G00 X-9.5813 Y13.4951 
G01 Z-0.2500 F254.00 
G01 X-9.6851 Y13.3913 F508.00 
G01 X-9.8071 Y13.3098 
G01 X-9.9427 Y13.2536 
G01 X-10.0866 Y13.2250 
G01 X-22.1150 Y13.2250 
G01 X-22.1150 Y1.1966 
G01 X-22.1436 Y1.0527 
G01 X-22.1998 Y0.9171 
G01 X-22.2813 Y0.7951 
G01 X-22.3851 Y0.6913 
G01 X-22.5071 Y0.6098 
G01 X-22.6427 Y0.5536 
G01 X-22.7866 Y0.5250 
G01 X-59.7634 Y0.5250 
G01 X-59.9073 Y0.5536 
G01 X-60.0429 Y0.6098 
G01 X-60.1649 Y0.6913 
G01 X-60.2687 Y0.7951 
G01 X-60.3502 Y0.9171 
G01 X-60.4064 Y1.0527 
G01 X-60.4350 Y1.1966 
G01 X-60.4350 Y11.7010 
G01 X-60.7672 Y11.7010 
G01 X-60.9383 Y11.7281 
G01 X-61.1031 Y11.7816 
G01 X-61.2574 Y11.8603 
G01 X-61.3976 Y11.9621 
G01 X-61.5201 Y12.0846 
G01 X-61.6219 Y12.2248 
G01 X-61.7006 Y12.3791 
G01 X-61.7541 Y12.5439 
G01 X-61.7812 Y12.7150 
G01 X-61.7812 Y12.8882 
G01 X-61.7541 Y13.0593 
G01 X-61.7006 Y13.2241 
G01 X-61.6219 Y13.3784 
G01 X-61.5201 Y13.5186 
G01 X-61.3976 Y13.6411 
G01 X-61.2574 Y13.7429 
G01 X-61.1031 Y13.8216 
G01 X-60.9383 Y13.8751 
G01 X-60.7672 Y13.9022 
G01 X-58.6128 Y13.9022 
G01 X-58.4417 Y13.8751 
G01 X-58.2769 Y13.8216 
G01 X-58.1226 Y13.7429 
G01 X-57.9824 Y13.6411 
G01 X-57.8599 Y13.5186 
G01 X-57.7581 Y13.3784 
G01 X-57.6794 Y13.2241 
G01 X-57.6259 Y13.0593 
G01 X-57.5988 Y12.8882 
G01 X-57.5988 Y12.7150 
G01 X-57.6259 Y12.5439 
G01 X-57.6794 Y12.3791 
G01 X-57.7581 Y12.2248 
G01 X-57.8599 Y12.0846 
G01 X-57.9824 Y11.9621 
G01 X-58.1226 Y11.8603 
G01 X-58.2769 Y11.7816 
G01 X-58.4417 Y11.7281 
G01 X-58.6128 Y11.7010 
G01 X-58.9450 Y11.7010 
G01 X-58.9450 Y2.0150 
G01 X-23.6050 Y2.0150 
G01 X-23.6050 Y14.4950 
G01 X-30.9252 Y14.4950 
G01 X-31.0207 Y14.4760 
G01 X-32.4792 Y14.4760 
G01 X-32.6268 Y14.5054 
G01 X-32.7659 Y14.5630 
G01 X-32.8910 Y14.6466 
G01 X-32.9974 Y14.7530 
G01 X-33.0810 Y14.8781 
G01 X-33.1386 Y15.0171 
G01 X-33.1680 Y15.1647 
G01 X-33.1680 Y15.3152 
G01 X-33.1386 Y15.4628 
G01 X-33.0810 Y15.6019 
G01 X-32.9974 Y15.7270 
G01 X-32.8910 Y15.8334 
G01 X-32.7659 Y15.9170 
G01 X-32.6268 Y15.9746 
G01 X-32.4792 Y16.0040 
G01 X-31.0207 Y16.0040 
G01 X-30.9252 Y15.9850 
G01 X-23.6050 Y15.9850 
G01 X-23.6050 Y20.3934 
G01 X-23.5764 Y20.5373 
G01 X-23.5202 Y20.6729 
G01 X-23.4387 Y20.7949 
G01 X-23.3349 Y20.8987 
G01 X-23.2129 Y20.9802 
G01 X-23.0773 Y21.0364 
G01 X-22.9334 Y21.0650 
G01 X-18.9742 Y21.0650 
G01 X-18.9433 Y21.0857 
G01 X-18.7860 Y21.1508 
G01 X-18.6191 Y21.1840 
G01 X-16.9409 Y21.1840 
G01 X-16.7740 Y21.1508 
G01 X-16.6167 Y21.0857 
G01 X-16.4752 Y20.9911 
G01 X-16.3549 Y20.8708 
G01 X-16.2603 Y20.7293 
G01 X-16.1952 Y20.5720 
G01 X-16.1620 Y20.4051 
G01 X-16.1620 Y20.2349 
G01 X-16.1952 Y20.0680 
G01 X-16.2603 Y19.9107 
G01 X-16.3549 Y19.7692 
G01 X-16.4752 Y19.6489 
G01 X-16.6167 Y19.5543 
G01 X-16.7740 Y19.4892 
G01 X-16.9409 Y19.4560 
G01 X-18.6191 Y19.4560 
G01 X-18.7860 Y19.4892 
G01 X-18.9433 Y19.5543 
G01 X-18.9742 Y19.5750 
G01 X-22.1150 Y19.5750 
G01 X-22.1150 Y14.7150 
G01 X-10.9050 Y14.7150 
G01 X-10.9050 Y26.7434 
G01 X-10.8764 Y26.8873 
G01 X-10.8202 Y27.0229 
G01 X-10.7387 Y27.1449 
G01 X-10.6349 Y27.2487 
G01 X-10.5129 Y27.3302 
G01 X-10.3773 Y27.3864 
G01 X-10.2334 Y27.4150 
G01 X-3.2850 Y27.4150 
G01 X-3.2850 Y34.3658 
G01 X-3.3057 Y34.3967 
G01 X-3.3708 Y34.5540 
G01 X-3.4040 Y34.7209 
G01 X-3.4040 Y36.3991 
G01 X-3.3708 Y36.5660 
G01 X-3.3057 Y36.7233 
G01 X-3.2850 Y36.7542 
G01 X-3.2850 Y42.4350 
G01 X-15.3134 Y42.4350 
G01 X-15.4573 Y42.4636 
G01 X-15.5929 Y42.5198 
G01 X-15.7149 Y42.6013 
G01 X-15.8187 Y42.7051 
G01 X-15.9002 Y42.8271 
G01 X-15.9564 Y42.9627 
G01 X-15.9850 Y43.1066 
G01 X-15.9850 Y45.1249 
G01 X-16.0332 Y45.1599 
G01 X-16.1557 Y45.2824 
G01 X-16.2575 Y45.4226 
G01 X-16.3362 Y45.5769 
G01 X-16.3897 Y45.7417 
G01 X-16.4168 Y45.9128 
G01 X-16.4168 Y48.0672 
G01 X-16.3897 Y48.2383 
G01 X-16.3362 Y48.4031 
G01 X-16.2575 Y48.5574 
G01 X-16.1557 Y48.6976 
G01 X-16.0332 Y48.8201 
G01 X-15.9850 Y48.8551 
G01 X-15.9850 Y56.4050 
G01 X-36.8834 Y56.4050 
G01 X-36.9250 Y56.3772 
G01 X-37.0836 Y56.3115 
G01 X-37.2521 Y56.2780 
G01 X-38.9479 Y56.2780 
G01 X-39.1164 Y56.3115 
G01 X-39.2750 Y56.3772 
G01 X-39.4179 Y56.4727 
G01 X-39.5393 Y56.5941 
G01 X-39.6348 Y56.7370 
G01 X-39.7005 Y56.8956 
G01 X-39.7340 Y57.0641 
G01 X-39.7340 Y57.2359 
G01 X-39.7005 Y57.4044 
G01 X-39.6348 Y57.5630 
G01 X-39.5393 Y57.7059 
G01 X-39.4179 Y57.8273 
G01 X-39.2750 Y57.9228 
G01 X-39.1164 Y57.9885 
G01 X-38.9479 Y58.0220 
G01 X-37.2521 Y58.0220 
G01 X-37.0836 Y57.9885 
G01 X-36.9250 Y57.9228 
G01 X-36.8834 Y57.8950 
G01 X-15.9850 Y57.8950 
G01 X-15.9850 Y62.1200 
G01 X-16.5319 Y62.1200 
G01 X-16.5723 Y62.1367 
G01 X-16.6032 Y62.1677 
G01 X-16.6200 Y62.2081 
G01 X-16.6200 Y64.7919 
G01 X-16.6032 Y64.8323 
G01 X-16.5723 Y64.8632 
G01 X-16.5319 Y64.8800 
G01 X-13.9481 Y64.8800 
G01 X-13.9077 Y64.8632 
G01 X-13.8767 Y64.8323 
G01 X-13.8600 Y64.7919 
G01 X-13.8600 Y62.2081 
G01 X-13.8767 Y62.1677 
G01 X-13.9077 Y62.1367 
G01 X-13.9481 Y62.1200 
G01 X-14.4950 Y62.1200 
G01 X-14.4950 Y48.7159 
G01 X-14.4767 Y48.6976 
G01 X-14.3749 Y48.5574 
G01 X-14.2962 Y48.4031 
G01 X-14.2427 Y48.2383 
G01 X-14.2156 Y48.0672 
G01 X-14.2156 Y45.9128 
G01 X-14.2427 Y45.7417 
G01 X-14.2962 Y45.5769 
G01 X-14.3749 Y45.4226 
G01 X-14.4767 Y45.2824 
G01 X-14.4950 Y45.2641 
G01 X-14.4950 Y43.9250 
G01 X-2.4666 Y43.9250 
G01 X-2.3227 Y43.8964 
G01 X-2.1871 Y43.8402 
G01 X-2.0651 Y43.7587 
G01 X-1.9613 Y43.6549 
G01 X-1.8798 Y43.5329 
G01 X-1.8236 Y43.3973 
G01 X-1.7950 Y43.2534 
G01 X-1.7950 Y36.7542 
G01 X-1.7743 Y36.7233 
G01 X-1.7092 Y36.5660 
G01 X-1.6760 Y36.3991 
G01 X-1.6760 Y34.7209 
G01 X-1.7092 Y34.5540 
G01 X-1.7743 Y34.3967 
G01 X-1.7950 Y34.3658 
G01 X-1.7950 Y26.5966 
G01 X-1.8236 Y26.4527 
G01 X-1.8798 Y26.3171 
G01 X-1.9613 Y26.1951 
G01 X-2.0651 Y26.0913 
G01 X-2.1871 Y26.0098 
G01 X-2.3227 Y25.9536 
G01 X-2.4666 Y25.9250 
G01 X-9.4150 Y25.9250 
G01 X-9.4150 Y13.8966 
G01 X-9.4436 Y13.7527 
G01 X-9.4998 Y13.6171 
G01 X-9.5813 Y13.4951 
G00 Z2.5400 
G00 X-12.1213 Y17.3051 
G01 Z-0.2500 F254.00 
G01 X-12.2251 Y17.2013 F508.00 
G01 X-12.3471 Y17.1198 
G01 X-12.4827 Y17.0636 
G01 X-12.6266 Y17.0350 
G01 X-16.5858 Y17.0350 
G01 X-16.6167 Y17.0143 
G01 X-16.7740 Y16.9492 
G01 X-16.9409 Y16.9160 
G01 X-18.6191 Y16.9160 
G01 X-18.7860 Y16.9492 
G01 X-18.9433 Y17.0143 
G01 X-19.0848 Y17.1089 
G01 X-19.2051 Y17.2292 
G01 X-19.2997 Y17.3707 
G01 X-19.3648 Y17.5280 
G01 X-19.3980 Y17.6949 
G01 X-19.3980 Y17.8651 
G01 X-19.3648 Y18.0320 
G01 X-19.2997 Y18.1893 
G01 X-19.2051 Y18.3308 
G01 X-19.0848 Y18.4511 
G01 X-18.9433 Y18.5457 
G01 X-18.7860 Y18.6108 
G01 X-18.6191 Y18.6440 
G01 X-16.9409 Y18.6440 
G01 X-16.7740 Y18.6108 
G01 X-16.6167 Y18.5457 
G01 X-16.5858 Y18.5250 
G01 X-13.4450 Y18.5250 
G01 X-13.4450 Y29.2834 
G01 X-13.4164 Y29.4273 
G01 X-13.3602 Y29.5629 
G01 X-13.2787 Y29.6849 
G01 X-13.1749 Y29.7887 
G01 X-13.0529 Y29.8702 
G01 X-12.9173 Y29.9264 
G01 X-12.7734 Y29.9550 
G01 X-5.8250 Y29.9550 
G01 X-5.8250 Y34.3658 
G01 X-5.8457 Y34.3967 
G01 X-5.9108 Y34.5540 
G01 X-5.9440 Y34.7209 
G01 X-5.9440 Y36.3991 
G01 X-5.9108 Y36.5660 
G01 X-5.8457 Y36.7233 
G01 X-5.8250 Y36.7542 
G01 X-5.8250 Y38.6250 
G01 X-20.3934 Y38.6250 
G01 X-20.5373 Y38.6536 
G01 X-20.6729 Y38.7098 
G01 X-20.7949 Y38.7913 
G01 X-20.8987 Y38.8951 
G01 X-20.9802 Y39.0171 
G01 X-21.0364 Y39.1527 
G01 X-21.0650 Y39.2966 
G01 X-21.0650 Y45.1879 
G01 X-21.1595 Y45.2824 
G01 X-21.2613 Y45.4226 
G01 X-21.3400 Y45.5769 
G01 X-21.3935 Y45.7417 
G01 X-21.4206 Y45.9128 
G01 X-21.4206 Y48.0672 
G01 X-21.3935 Y48.2383 
G01 X-21.3400 Y48.4031 
G01 X-21.2613 Y48.5574 
G01 X-21.1595 Y48.6976 
G01 X-21.0650 Y48.7921 
G01 X-21.0650 Y51.3250 
G01 X-29.7350 Y51.3250 
G01 X-29.7350 Y49.4566 
G01 X-29.7636 Y49.3127 
G01 X-29.8198 Y49.1771 
G01 X-29.9013 Y49.0551 
G01 X-30.0051 Y48.9513 
G01 X-30.1271 Y48.8698 
G01 X-30.2627 Y48.8136 
G01 X-30.4066 Y48.7850 
G01 X-40.2620 Y48.7850 
G01 X-40.2871 Y48.7682 
G01 X-40.4227 Y48.7120 
G01 X-40.5666 Y48.6834 
G01 X-57.8879 Y48.6834 
G01 X-57.9824 Y48.5889 
G01 X-58.1226 Y48.4871 
G01 X-58.2769 Y48.4084 
G01 X-58.4417 Y48.3549 
G01 X-58.6128 Y48.3278 
G01 X-60.7672 Y48.3278 
G01 X-60.9383 Y48.3549 
G01 X-61.1031 Y48.4084 
G01 X-61.2574 Y48.4871 
G01 X-61.3976 Y48.5889 
G01 X-61.4921 Y48.6834 
G01 X-62.7550 Y48.6834 
G01 X-62.7550 Y18.5350 
G01 X-61.5164 Y18.5515 
G01 X-61.3976 Y18.6703 
G01 X-61.2574 Y18.7721 
G01 X-61.1031 Y18.8508 
G01 X-60.9383 Y18.9043 
G01 X-60.7672 Y18.9314 
G01 X-58.6128 Y18.9314 
G01 X-58.4417 Y18.9043 
G01 X-58.2769 Y18.8508 
G01 X-58.1226 Y18.7721 
G01 X-57.9824 Y18.6703 
G01 X-57.8599 Y18.5478 
G01 X-57.8434 Y18.5250 
G01 X-54.5366 Y18.5250 
G01 X-54.3927 Y18.4964 
G01 X-54.2571 Y18.4402 
G01 X-54.1351 Y18.3587 
G01 X-54.0313 Y18.2549 
G01 X-53.9498 Y18.1329 
G01 X-53.8936 Y17.9973 
G01 X-53.8650 Y17.8534 
G01 X-53.8650 Y4.5550 
G01 X-28.6850 Y4.5550 
G01 X-28.6850 Y9.4150 
G01 X-30.9252 Y9.4150 
G01 X-31.0207 Y9.3960 
G01 X-32.4792 Y9.3960 
G01 X-32.6268 Y9.4254 
G01 X-32.7659 Y9.4830 
G01 X-32.8910 Y9.5666 
G01 X-32.9974 Y9.6730 
G01 X-33.0810 Y9.7981 
G01 X-33.1386 Y9.9371 
G01 X-33.1680 Y10.0847 
G01 X-33.1680 Y10.2352 
G01 X-33.1386 Y10.3828 
G01 X-33.0810 Y10.5219 
G01 X-32.9974 Y10.6470 
G01 X-32.8910 Y10.7534 
G01 X-32.7659 Y10.8370 
G01 X-32.6268 Y10.8946 
G01 X-32.4792 Y10.9240 
G01 X-31.0207 Y10.9240 
G01 X-30.9252 Y10.9050 
G01 X-27.8666 Y10.9050 
G01 X-27.7227 Y10.8764 
G01 X-27.5871 Y10.8202 
G01 X-27.4651 Y10.7387 
G01 X-27.3613 Y10.6349 
G01 X-27.2798 Y10.5129 
G01 X-27.2236 Y10.3773 
G01 X-27.1950 Y10.2334 
G01 X-27.1950 Y3.7366 
G01 X-27.2236 Y3.5927 
G01 X-27.2798 Y3.4571 
G01 X-27.3613 Y3.3351 
G01 X-27.4651 Y3.2313 
G01 X-27.5871 Y3.1498 
G01 X-27.7227 Y3.0936 
G01 X-27.8666 Y3.0650 
G01 X-54.6834 Y3.0650 
G01 X-54.8273 Y3.0936 
G01 X-54.9629 Y3.1498 
G01 X-55.0849 Y3.2313 
G01 X-55.1887 Y3.3351 
G01 X-55.2702 Y3.4571 
G01 X-55.3264 Y3.5927 
G01 X-55.3550 Y3.7366 
G01 X-55.3550 Y17.0350 
G01 X-57.9387 Y17.0350 
G01 X-57.9824 Y16.9913 
G01 X-58.1226 Y16.8895 
G01 X-58.2769 Y16.8108 
G01 X-58.4417 Y16.7573 
G01 X-58.6128 Y16.7302 
G01 X-60.7672 Y16.7302 
G01 X-60.9383 Y16.7573 
G01 X-61.1031 Y16.8108 
G01 X-61.2574 Y16.8895 
G01 X-61.3976 Y16.9913 
G01 X-61.4413 Y17.0350 
G01 X-63.4951 Y17.0350 
G01 X-63.5634 Y17.0341 
G01 X-63.5684 Y17.0350 
G01 X-63.5734 Y17.0350 
G01 X-63.6405 Y17.0483 
G01 X-63.7077 Y17.0608 
G01 X-63.7124 Y17.0627 
G01 X-63.7173 Y17.0636 
G01 X-63.7805 Y17.0898 
G01 X-63.8441 Y17.1151 
G01 X-63.8483 Y17.1179 
G01 X-63.8529 Y17.1198 
G01 X-63.9099 Y17.1579 
G01 X-63.9671 Y17.1950 
G01 X-63.9707 Y17.1985 
G01 X-63.9749 Y17.2013 
G01 X-64.0235 Y17.2499 
G01 X-64.0723 Y17.2974 
G01 X-64.0751 Y17.3015 
G01 X-64.0787 Y17.3051 
G01 X-64.1167 Y17.3620 
G01 X-64.1554 Y17.4183 
G01 X-64.1574 Y17.4229 
G01 X-64.1602 Y17.4271 
G01 X-64.1864 Y17.4903 
G01 X-64.2134 Y17.5532 
G01 X-64.2144 Y17.5581 
G01 X-64.2164 Y17.5627 
G01 X-64.2297 Y17.6298 
G01 X-64.2440 Y17.6967 
G01 X-64.2440 Y17.7017 
G01 X-64.2450 Y17.7066 
G01 X-64.2450 Y17.7751 
G01 X-64.2459 Y17.8434 
G01 X-64.2450 Y17.8484 
G01 X-64.2450 Y55.8776 
G01 X-64.2455 Y55.9484 
G01 X-64.2450 Y55.9534 
G01 X-64.2312 Y56.0228 
G01 X-64.2178 Y56.0925 
G01 X-64.2164 Y56.0973 
G01 X-64.1894 Y56.1625 
G01 X-64.1625 Y56.2285 
G01 X-64.1602 Y56.2329 
G01 X-64.1209 Y56.2917 
G01 X-64.0818 Y56.3510 
G01 X-64.0787 Y56.3549 
G01 X-64.0284 Y56.4052 
G01 X-63.9788 Y56.4555 
G01 X-63.9749 Y56.4587 
G01 X-63.9159 Y56.4981 
G01 X-63.8573 Y56.5378 
G01 X-63.8529 Y56.5402 
G01 X-63.7877 Y56.5672 
G01 X-63.7221 Y56.5949 
G01 X-63.7173 Y56.5964 
G01 X-63.6479 Y56.6102 
G01 X-63.5783 Y56.6245 
G01 X-63.5734 Y56.6250 
G01 X-63.5024 Y56.6250 
G01 X-61.5042 Y56.6383 
G01 X-61.3976 Y56.7449 
G01 X-61.2574 Y56.8467 
G01 X-61.1031 Y56.9254 
G01 X-60.9383 Y56.9789 
G01 X-60.7672 Y57.0060 
G01 X-58.6128 Y57.0060 
G01 X-58.4417 Y56.9789 
G01 X-58.2769 Y56.9254 
G01 X-58.1226 Y56.8467 
G01 X-57.9824 Y56.7449 
G01 X-57.8599 Y56.6224 
G01 X-57.7581 Y56.4822 
G01 X-57.6794 Y56.3279 
G01 X-57.6259 Y56.1631 
G01 X-57.5988 Y55.9920 
G01 X-57.5988 Y55.8188 
G01 X-57.6259 Y55.6477 
G01 X-57.6794 Y55.4829 
G01 X-57.7581 Y55.3286 
G01 X-57.8599 Y55.1884 
G01 X-57.9824 Y55.0659 
G01 X-58.1226 Y54.9641 
G01 X-58.2769 Y54.8854 
G01 X-58.4417 Y54.8319 
G01 X-58.6128 Y54.8048 
G01 X-60.7672 Y54.8048 
G01 X-60.9383 Y54.8319 
G01 X-61.1031 Y54.8854 
G01 X-61.2574 Y54.9641 
G01 X-61.3976 Y55.0659 
G01 X-61.4801 Y55.1484 
G01 X-62.7550 Y55.1400 
G01 X-62.7550 Y50.1734 
G01 X-61.4921 Y50.1734 
G01 X-61.3976 Y50.2679 
G01 X-61.2574 Y50.3697 
G01 X-61.1031 Y50.4484 
G01 X-60.9383 Y50.5019 
G01 X-60.7672 Y50.5290 
G01 X-58.6128 Y50.5290 
G01 X-58.4417 Y50.5019 
G01 X-58.2769 Y50.4484 
G01 X-58.1226 Y50.3697 
G01 X-57.9824 Y50.2679 
G01 X-57.8879 Y50.1734 
G01 X-45.1950 Y50.1734 
G01 X-45.1950 Y59.7634 
G01 X-45.1664 Y59.9073 
G01 X-45.1102 Y60.0429 
G01 X-45.0287 Y60.1649 
G01 X-44.9249 Y60.2687 
G01 X-44.8029 Y60.3502 
G01 X-44.6673 Y60.4064 
G01 X-44.5234 Y60.4350 
G01 X-39.3166 Y60.4350 
G01 X-39.2750 Y60.4628 
G01 X-39.1164 Y60.5285 
G01 X-38.9479 Y60.5620 
G01 X-37.2521 Y60.5620 
G01 X-37.0836 Y60.5285 
G01 X-36.9250 Y60.4628 
G01 X-36.8834 Y60.4350 
G01 X-21.0650 Y60.4350 
G01 X-21.0650 Y62.1200 
G01 X-21.6119 Y62.1200 
G01 X-21.6523 Y62.1367 
G01 X-21.6833 Y62.1677 
G01 X-21.7000 Y62.2081 
G01 X-21.7000 Y64.7919 
G01 X-21.6833 Y64.8323 
G01 X-21.6523 Y64.8632 
G01 X-21.6119 Y64.8800 
G01 X-19.0281 Y64.8800 
G01 X-18.9877 Y64.8632 
G01 X-18.9567 Y64.8323 
G01 X-18.9400 Y64.7919 
G01 X-18.9400 Y62.2081 
G01 X-18.9567 Y62.1677 
G01 X-18.9877 Y62.1367 
G01 X-19.0281 Y62.1200 
G01 X-19.5750 Y62.1200 
G01 X-19.5750 Y59.7634 
G01 X-19.5750 Y59.6166 
G01 X-19.6036 Y59.4727 
G01 X-19.6598 Y59.3371 
G01 X-19.7413 Y59.2151 
G01 X-19.8451 Y59.1113 
G01 X-19.9671 Y59.0298 
G01 X-20.1027 Y58.9736 
G01 X-20.2466 Y58.9450 
G01 X-36.8834 Y58.9450 
G01 X-36.9250 Y58.9172 
G01 X-37.0836 Y58.8515 
G01 X-37.2521 Y58.8180 
G01 X-38.9479 Y58.8180 
G01 X-39.1164 Y58.8515 
G01 X-39.2750 Y58.9172 
G01 X-39.3166 Y58.9450 
G01 X-43.7050 Y58.9450 
G01 X-43.7050 Y50.1734 
G01 X-41.0180 Y50.1734 
G01 X-40.9929 Y50.1902 
G01 X-40.8573 Y50.2464 
G01 X-40.7134 Y50.2750 
G01 X-31.2250 Y50.2750 
G01 X-31.2250 Y52.1434 
G01 X-31.1964 Y52.2873 
G01 X-31.1402 Y52.4229 
G01 X-31.0587 Y52.5449 
G01 X-30.9549 Y52.6487 
G01 X-30.8329 Y52.7302 
G01 X-30.6973 Y52.7864 
G01 X-30.5534 Y52.8150 
G01 X-20.2466 Y52.8150 
G01 X-20.1027 Y52.7864 
G01 X-19.9671 Y52.7302 
G01 X-19.8451 Y52.6487 
G01 X-19.7413 Y52.5449 
G01 X-19.6598 Y52.4229 
G01 X-19.6036 Y52.2873 
G01 X-19.5750 Y52.1434 
G01 X-19.5750 Y48.7921 
G01 X-19.4805 Y48.6976 
G01 X-19.3787 Y48.5574 
G01 X-19.3000 Y48.4031 
G01 X-19.2465 Y48.2383 
G01 X-19.2194 Y48.0672 
G01 X-19.2194 Y45.9128 
G01 X-19.2465 Y45.7417 
G01 X-19.3000 Y45.5769 
G01 X-19.3787 Y45.4226 
G01 X-19.4805 Y45.2824 
G01 X-19.5750 Y45.1879 
G01 X-19.5750 Y40.1150 
G01 X-5.0066 Y40.1150 
G01 X-4.8627 Y40.0864 
G01 X-4.7271 Y40.0302 
G01 X-4.6051 Y39.9487 
G01 X-4.5013 Y39.8449 
G01 X-4.4198 Y39.7229 
G01 X-4.3636 Y39.5873 
G01 X-4.3350 Y39.4434 
G01 X-4.3350 Y36.7542 
G01 X-4.3143 Y36.7233 
G01 X-4.2492 Y36.5660 
G01 X-4.2160 Y36.3991 
G01 X-4.2160 Y34.7209 
G01 X-4.2492 Y34.5540 
G01 X-4.3143 Y34.3967 
G01 X-4.3350 Y34.3658 
G01 X-4.3350 Y29.1366 
G01 X-4.3636 Y28.9927 
G01 X-4.4198 Y28.8571 
G01 X-4.5013 Y28.7351 
G01 X-4.6051 Y28.6313 
G01 X-4.7271 Y28.5498 
G01 X-4.8627 Y28.4936 
G01 X-5.0066 Y28.4650 
G01 X-11.9550 Y28.4650 
G01 X-11.9550 Y17.7066 
G01 X-11.9836 Y17.5627 
G01 X-12.0398 Y17.4271 
G01 X-12.1213 Y17.3051 
G00 Z2.5400 
G00 X-16.3549 Y22.3092 
G01 Z-0.2500 F254.00 
G01 X-16.4752 Y22.1889 F508.00 
G01 X-16.6167 Y22.0943 
G01 X-16.7740 Y22.0292 
G01 X-16.9409 Y21.9960 
G01 X-18.6191 Y21.9960 
G01 X-18.7860 Y22.0292 
G01 X-18.9433 Y22.0943 
G01 X-18.9742 Y22.1150 
G01 X-30.9252 Y22.1150 
G01 X-31.0207 Y22.0960 
G01 X-32.4792 Y22.0960 
G01 X-32.6268 Y22.1254 
G01 X-32.7659 Y22.1830 
G01 X-32.8910 Y22.2666 
G01 X-32.9974 Y22.3730 
G01 X-33.0810 Y22.4981 
G01 X-33.1386 Y22.6371 
G01 X-33.1680 Y22.7847 
G01 X-33.1680 Y22.9352 
G01 X-33.1386 Y23.0829 
G01 X-33.0810 Y23.2219 
G01 X-32.9974 Y23.3470 
G01 X-32.8910 Y23.4534 
G01 X-32.7659 Y23.5370 
G01 X-32.6268 Y23.5946 
G01 X-32.4792 Y23.6240 
G01 X-31.0207 Y23.6240 
G01 X-30.9252 Y23.6050 
G01 X-18.9742 Y23.6050 
G01 X-18.9433 Y23.6257 
G01 X-18.7860 Y23.6908 
G01 X-18.6191 Y23.7240 
G01 X-16.9409 Y23.7240 
G01 X-16.7740 Y23.6908 
G01 X-16.6167 Y23.6257 
G01 X-16.4752 Y23.5311 
G01 X-16.3549 Y23.4108 
G01 X-16.2603 Y23.2693 
G01 X-16.1952 Y23.1120 
G01 X-16.1620 Y22.9451 
G01 X-16.1620 Y22.7749 
G01 X-16.1952 Y22.6080 
G01 X-16.2603 Y22.4507 
G01 X-16.3549 Y22.3092 
G00 Z2.5400 
G00 X-16.3549 Y24.8492 
G01 Z-0.2500 F254.00 
G01 X-16.4752 Y24.7289 F508.00 
G01 X-16.6167 Y24.6343 
G01 X-16.7740 Y24.5692 
G01 X-16.9409 Y24.5360 
G01 X-18.6191 Y24.5360 
G01 X-18.7860 Y24.5692 
G01 X-18.9433 Y24.6343 
G01 X-18.9742 Y24.6550 
G01 X-30.9252 Y24.6550 
G01 X-31.0207 Y24.6360 
G01 X-32.4792 Y24.6360 
G01 X-32.6268 Y24.6654 
G01 X-32.7659 Y24.7230 
G01 X-32.8910 Y24.8066 
G01 X-32.9974 Y24.9130 
G01 X-33.0810 Y25.0381 
G01 X-33.1386 Y25.1771 
G01 X-33.1680 Y25.3248 
G01 X-33.1680 Y25.4752 
G01 X-33.1386 Y25.6228 
G01 X-33.0810 Y25.7619 
G01 X-32.9974 Y25.8870 
G01 X-32.8910 Y25.9934 
G01 X-32.7659 Y26.0770 
G01 X-32.6268 Y26.1346 
G01 X-32.4792 Y26.1640 
G01 X-31.0207 Y26.1640 
G01 X-30.9252 Y26.1450 
G01 X-18.9742 Y26.1450 
G01 X-18.9433 Y26.1657 
G01 X-18.7860 Y26.2308 
G01 X-18.6191 Y26.2640 
G01 X-16.9409 Y26.2640 
G01 X-16.7740 Y26.2308 
G01 X-16.6167 Y26.1657 
G01 X-16.4752 Y26.0711 
G01 X-16.3549 Y25.9508 
G01 X-16.2603 Y25.8093 
G01 X-16.1952 Y25.6520 
G01 X-16.1620 Y25.4851 
G01 X-16.1620 Y25.3149 
G01 X-16.1952 Y25.1480 
G01 X-16.2603 Y24.9907 
G01 X-16.3549 Y24.8492 
G00 Z2.5400 
G00 X-10.7108 Y34.1349 
G01 Z-0.2500 F254.00 
G01 X-10.8311 Y34.2552 F508.00 
G01 X-10.9257 Y34.3967 
G01 X-10.9908 Y34.5540 
G01 X-11.0240 Y34.7209 
G01 X-11.0240 Y34.8150 
G01 X-30.9252 Y34.8150 
G01 X-31.0207 Y34.7960 
G01 X-32.4792 Y34.7960 
G01 X-32.6268 Y34.8254 
G01 X-32.7659 Y34.8830 
G01 X-32.8910 Y34.9666 
G01 X-32.9974 Y35.0730 
G01 X-33.0810 Y35.1981 
G01 X-33.1386 Y35.3371 
G01 X-33.1680 Y35.4847 
G01 X-33.1680 Y35.6352 
G01 X-33.1386 Y35.7829 
G01 X-33.0810 Y35.9219 
G01 X-32.9974 Y36.0470 
G01 X-32.8910 Y36.1534 
G01 X-32.7659 Y36.2370 
G01 X-32.6268 Y36.2946 
G01 X-32.4792 Y36.3240 
G01 X-31.0207 Y36.3240 
G01 X-30.9252 Y36.3050 
G01 X-11.0240 Y36.3050 
G01 X-11.0240 Y36.3991 
G01 X-10.9908 Y36.5660 
G01 X-10.9257 Y36.7233 
G01 X-10.8311 Y36.8648 
G01 X-10.7108 Y36.9851 
G01 X-10.5693 Y37.0797 
G01 X-10.4120 Y37.1448 
G01 X-10.2451 Y37.1780 
G01 X-10.0749 Y37.1780 
G01 X-9.9080 Y37.1448 
G01 X-9.7507 Y37.0797 
G01 X-9.6092 Y36.9851 
G01 X-9.4889 Y36.8648 
G01 X-9.3943 Y36.7233 
G01 X-9.3292 Y36.5660 
G01 X-9.2960 Y36.3991 
G01 X-9.2960 Y34.7209 
G01 X-9.3292 Y34.5540 
G01 X-9.3943 Y34.3967 
G01 X-9.4889 Y34.2552 
G01 X-9.6092 Y34.1349 
G01 X-9.7507 Y34.0403 
G01 X-9.9080 Y33.9752 
G01 X-10.0749 Y33.9420 
G01 X-10.2451 Y33.9420 
G01 X-10.4120 Y33.9752 
G01 X-10.5693 Y34.0403 
G01 X-10.7108 Y34.1349 
G00 Z2.5400 
G00 X-8.1708 Y34.1349 
G01 Z-0.2500 F254.00 
G01 X-8.2911 Y34.2552 F508.00 
G01 X-8.3857 Y34.3967 
G01 X-8.4508 Y34.5540 
G01 X-8.4840 Y34.7209 
G01 X-8.4840 Y36.3991 
G01 X-8.4508 Y36.5660 
G01 X-8.3857 Y36.7233 
G01 X-8.2911 Y36.8648 
G01 X-8.1708 Y36.9851 
G01 X-8.0293 Y37.0797 
G01 X-7.8720 Y37.1448 
G01 X-7.7051 Y37.1780 
G01 X-7.5349 Y37.1780 
G01 X-7.3680 Y37.1448 
G01 X-7.2107 Y37.0797 
G01 X-7.0692 Y36.9851 
G01 X-6.9489 Y36.8648 
G01 X-6.8543 Y36.7233 
G01 X-6.7892 Y36.5660 
G01 X-6.7560 Y36.3991 
G01 X-6.7560 Y34.7209 
G01 X-6.7892 Y34.5540 
G01 X-6.8543 Y34.3967 
G01 X-6.9489 Y34.2552 
G01 X-7.0692 Y34.1349 
G01 X-7.2107 Y34.0403 
G01 X-7.3680 Y33.9752 
G01 X-7.5349 Y33.9420 
G01 X-7.7051 Y33.9420 
G01 X-7.8720 Y33.9752 
G01 X-8.0293 Y34.0403 
G01 X-8.1708 Y34.1349 
G00 Z2.5400 
G00 X-30.6090 Y33.6134 
G01 Z-0.2500 F254.00 
G01 X-30.5026 Y33.5070 F508.00 
G01 X-30.4190 Y33.3819 
G01 X-30.3614 Y33.2428 
G01 X-30.3320 Y33.0952 
G01 X-30.3320 Y32.9447 
G01 X-30.3614 Y32.7971 
G01 X-30.4190 Y32.6581 
G01 X-30.5026 Y32.5330 
G01 X-30.6090 Y32.4266 
G01 X-30.7341 Y32.3430 
G01 X-30.8731 Y32.2854 
G01 X-31.0207 Y32.2560 
G01 X-32.4792 Y32.2560 
G01 X-32.6268 Y32.2854 
G01 X-32.7659 Y32.3430 
G01 X-32.8910 Y32.4266 
G01 X-32.9974 Y32.5330 
G01 X-33.0810 Y32.6581 
G01 X-33.1386 Y32.7971 
G01 X-33.1680 Y32.9447 
G01 X-33.1680 Y33.0952 
G01 X-33.1386 Y33.2428 
G01 X-33.0810 Y33.3819 
G01 X-32.9974 Y33.5070 
G01 X-32.8910 Y33.6134 
G01 X-32.7659 Y33.6970 
G01 X-32.6268 Y33.7546 
G01 X-32.4792 Y33.7840 
G01 X-31.0207 Y33.7840 
G01 X-30.8731 Y33.7546 
G01 X-30.7341 Y33.6970 
G01 X-30.6090 Y33.6134 
G00 Z2.5400 
G00 X-30.6090 Y31.0734 
G01 Z-0.2500 F254.00 
G01 X-30.5026 Y30.9670 F508.00 
G01 X-30.4190 Y30.8419 
G01 X-30.3614 Y30.7029 
G01 X-30.3320 Y30.5552 
G01 X-30.3320 Y30.4047 
G01 X-30.3614 Y30.2571 
G01 X-30.4190 Y30.1181 
G01 X-30.5026 Y29.9930 
G01 X-30.6090 Y29.8866 
G01 X-30.7341 Y29.8030 
G01 X-30.8731 Y29.7454 
G01 X-31.0207 Y29.7160 
G01 X-32.4792 Y29.7160 
G01 X-32.6268 Y29.7454 
G01 X-32.7659 Y29.8030 
G01 X-32.8910 Y29.8866 
G01 X-32.9974 Y29.9930 
G01 X-33.0810 Y30.1181 
G01 X-33.1386 Y30.2571 
G01 X-33.1680 Y30.4047 
G01 X-33.1680 Y30.5552 
G01 X-33.1386 Y30.7029 
G01 X-33.0810 Y30.8419 
G01 X-32.9974 Y30.9670 
G01 X-32.8910 Y31.0734 
G01 X-32.7659 Y31.1570 
G01 X-32.6268 Y31.2146 
G01 X-32.4792 Y31.2440 
G01 X-31.0207 Y31.2440 
G01 X-30.8731 Y31.2146 
G01 X-30.7341 Y31.1570 
G01 X-30.6090 Y31.0734 
G00 Z2.5400 
G00 X-30.6090 Y28.5334 
G01 Z-0.2500 F254.00 
G01 X-30.5026 Y28.4270 F508.00 
G01 X-30.4190 Y28.3019 
G01 X-30.3614 Y28.1628 
G01 X-30.3320 Y28.0152 
G01 X-30.3320 Y27.8648 
G01 X-30.3614 Y27.7171 
G01 X-30.4190 Y27.5781 
G01 X-30.5026 Y27.4530 
G01 X-30.6090 Y27.3466 
G01 X-30.7341 Y27.2630 
G01 X-30.8731 Y27.2054 
G01 X-31.0207 Y27.1760 
G01 X-32.4792 Y27.1760 
G01 X-32.6268 Y27.2054 
G01 X-32.7659 Y27.2630 
G01 X-32.8910 Y27.3466 
G01 X-32.9974 Y27.4530 
G01 X-33.0810 Y27.5781 
G01 X-33.1386 Y27.7171 
G01 X-33.1680 Y27.8648 
G01 X-33.1680 Y28.0152 
G01 X-33.1386 Y28.1628 
G01 X-33.0810 Y28.3019 
G01 X-32.9974 Y28.4270 
G01 X-32.8910 Y28.5334 
G01 X-32.7659 Y28.6170 
G01 X-32.6268 Y28.6746 
G01 X-32.4792 Y28.7040 
G01 X-31.0207 Y28.7040 
G01 X-30.8731 Y28.6746 
G01 X-30.7341 Y28.6170 
G01 X-30.6090 Y28.5334 
G00 Z2.5400 
G00 X-30.6090 Y20.9134 
G01 Z-0.2500 F254.00 
G01 X-30.5026 Y20.8070 F508.00 
G01 X-30.4190 Y20.6819 
G01 X-30.3614 Y20.5429 
G01 X-30.3320 Y20.3952 
G01 X-30.3320 Y20.2447 
G01 X-30.3614 Y20.0971 
G01 X-30.4190 Y19.9581 
G01 X-30.5026 Y19.8330 
G01 X-30.6090 Y19.7266 
G01 X-30.7341 Y19.6430 
G01 X-30.8731 Y19.5854 
G01 X-31.0207 Y19.5560 
G01 X-32.4792 Y19.5560 
G01 X-32.6268 Y19.5854 
G01 X-32.7659 Y19.6430 
G01 X-32.8910 Y19.7266 
G01 X-32.9974 Y19.8330 
G01 X-33.0810 Y19.9581 
G01 X-33.1386 Y20.0971 
G01 X-33.1680 Y20.2447 
G01 X-33.1680 Y20.3952 
G01 X-33.1386 Y20.5429 
G01 X-33.0810 Y20.6819 
G01 X-32.9974 Y20.8070 
G01 X-32.8910 Y20.9134 
G01 X-32.7659 Y20.9970 
G01 X-32.6268 Y21.0546 
G01 X-32.4792 Y21.0840 
G01 X-31.0207 Y21.0840 
G01 X-30.8731 Y21.0546 
G01 X-30.7341 Y20.9970 
G01 X-30.6090 Y20.9134 
G00 Z2.5400 
G00 X-30.6090 Y18.3734 
G01 Z-0.2500 F254.00 
G01 X-30.5026 Y18.2670 F508.00 
G01 X-30.4190 Y18.1419 
G01 X-30.3614 Y18.0028 
G01 X-30.3320 Y17.8552 
G01 X-30.3320 Y17.7048 
G01 X-30.3614 Y17.5571 
G01 X-30.4190 Y17.4181 
G01 X-30.5026 Y17.2930 
G01 X-30.6090 Y17.1866 
G01 X-30.7341 Y17.1030 
G01 X-30.8731 Y17.0454 
G01 X-31.0207 Y17.0160 
G01 X-32.4792 Y17.0160 
G01 X-32.6268 Y17.0454 
G01 X-32.7659 Y17.1030 
G01 X-32.8910 Y17.1866 
G01 X-32.9974 Y17.2930 
G01 X-33.0810 Y17.4181 
G01 X-33.1386 Y17.5571 
G01 X-33.1680 Y17.7048 
G01 X-33.1680 Y17.8552 
G01 X-33.1386 Y18.0028 
G01 X-33.0810 Y18.1419 
G01 X-32.9974 Y18.2670 
G01 X-32.8910 Y18.3734 
G01 X-32.7659 Y18.4570 
G01 X-32.6268 Y18.5146 
G01 X-32.4792 Y18.5440 
G01 X-31.0207 Y18.5440 
G01 X-30.8731 Y18.5146 
G01 X-30.7341 Y18.4570 
G01 X-30.6090 Y18.3734 
G00 Z2.5400 
G00 X-30.6090 Y13.2934 
G01 Z-0.2500 F254.00 
G01 X-30.5026 Y13.1870 F508.00 
G01 X-30.4190 Y13.0619 
G01 X-30.3614 Y12.9229 
G01 X-30.3320 Y12.7752 
G01 X-30.3320 Y12.6248 
G01 X-30.3614 Y12.4771 
G01 X-30.4190 Y12.3381 
G01 X-30.5026 Y12.2130 
G01 X-30.6090 Y12.1066 
G01 X-30.7341 Y12.0230 
G01 X-30.8731 Y11.9654 
G01 X-31.0207 Y11.9360 
G01 X-32.4792 Y11.9360 
G01 X-32.6268 Y11.9654 
G01 X-32.7659 Y12.0230 
G01 X-32.8910 Y12.1066 
G01 X-32.9974 Y12.2130 
G01 X-33.0810 Y12.3381 
G01 X-33.1386 Y12.4771 
G01 X-33.1680 Y12.6248 
G01 X-33.1680 Y12.7752 
G01 X-33.1386 Y12.9229 
G01 X-33.0810 Y13.0619 
G01 X-32.9974 Y13.1870 
G01 X-32.8910 Y13.2934 
G01 X-32.7659 Y13.3770 
G01 X-32.6268 Y13.4346 
G01 X-32.4792 Y13.4640 
G01 X-31.0207 Y13.4640 
G01 X-30.8731 Y13.4346 
G01 X-30.7341 Y13.3770 
G01 X-30.6090 Y13.2934 
G00 Z2.5400 
G00 X-30.6090 Y8.2134 
G01 Z-0.2500 F254.00 
G01 X-30.5026 Y8.1070 F508.00 
G01 X-30.4190 Y7.9819 
G01 X-30.3614 Y7.8429 
G01 X-30.3320 Y7.6952 
G01 X-30.3320 Y7.5447 
G01 X-30.3614 Y7.3971 
G01 X-30.4190 Y7.2581 
G01 X-30.5026 Y7.1330 
G01 X-30.6090 Y7.0266 
G01 X-30.7341 Y6.9430 
G01 X-30.8731 Y6.8854 
G01 X-31.0207 Y6.8560 
G01 X-32.4792 Y6.8560 
G01 X-32.6268 Y6.8854 
G01 X-32.7659 Y6.9430 
G01 X-32.8910 Y7.0266 
G01 X-32.9974 Y7.1330 
G01 X-33.0810 Y7.2581 
G01 X-33.1386 Y7.3971 
G01 X-33.1680 Y7.5447 
G01 X-33.1680 Y7.6952 
G01 X-33.1386 Y7.8429 
G01 X-33.0810 Y7.9819 
G01 X-32.9974 Y8.1070 
G01 X-32.8910 Y8.2134 
G01 X-32.7659 Y8.2970 
G01 X-32.6268 Y8.3546 
G01 X-32.4792 Y8.3840 
G01 X-31.0207 Y8.3840 
G01 X-30.8731 Y8.3546 
G01 X-30.7341 Y8.2970 
G01 X-30.6090 Y8.2134 
G00 Z2.5400 
G00 X-36.2366 Y8.4030 
G01 Z-0.2500 F254.00 
G01 X-36.3430 Y8.2966 F508.00 
G01 X-36.4681 Y8.2130 
G01 X-36.6071 Y8.1554 
G01 X-36.7548 Y8.1260 
G01 X-36.9052 Y8.1260 
G01 X-37.0528 Y8.1554 
G01 X-37.1919 Y8.2130 
G01 X-37.3170 Y8.2966 
G01 X-37.4234 Y8.4030 
G01 X-37.5070 Y8.5281 
G01 X-37.5646 Y8.6671 
G01 X-37.5940 Y8.8148 
G01 X-37.5940 Y8.9652 
G01 X-37.5646 Y9.1128 
G01 X-37.5070 Y9.2519 
G01 X-37.4234 Y9.3770 
G01 X-37.3170 Y9.4834 
G01 X-37.1919 Y9.5670 
G01 X-37.0528 Y9.6246 
G01 X-36.9052 Y9.6540 
G01 X-36.7548 Y9.6540 
G01 X-36.6071 Y9.6246 
G01 X-36.4681 Y9.5670 
G01 X-36.3430 Y9.4834 
G01 X-36.2366 Y9.3770 
G01 X-36.1530 Y9.2519 
G01 X-36.0954 Y9.1128 
G01 X-36.0660 Y8.9652 
G01 X-36.0660 Y8.8148 
G01 X-36.0954 Y8.6671 
G01 X-36.1530 Y8.5281 
G01 X-36.2366 Y8.4030 
G00 Z2.5400 
G00 X-36.3430 Y6.9434 
G01 Z-0.2500 F254.00 
G01 X-36.2366 Y6.8370 F508.00 
G01 X-36.1530 Y6.7119 
G01 X-36.0954 Y6.5728 
G01 X-36.0660 Y6.4252 
G01 X-36.0660 Y6.2748 
G01 X-36.0954 Y6.1271 
G01 X-36.1530 Y5.9881 
G01 X-36.2366 Y5.8630 
G01 X-36.3430 Y5.7566 
G01 X-36.4681 Y5.6730 
G01 X-36.6071 Y5.6154 
G01 X-36.7548 Y5.5860 
G01 X-36.9052 Y5.5860 
G01 X-37.0528 Y5.6154 
G01 X-37.1919 Y5.6730 
G01 X-37.3170 Y5.7566 
G01 X-37.4234 Y5.8630 
G01 X-37.5070 Y5.9881 
G01 X-37.5646 Y6.1271 
G01 X-37.5940 Y6.2748 
G01 X-37.5940 Y6.4252 
G01 X-37.5646 Y6.5728 
G01 X-37.5070 Y6.7119 
G01 X-37.4234 Y6.8370 
G01 X-37.3170 Y6.9434 
G01 X-37.1919 Y7.0270 
G01 X-37.0528 Y7.0846 
G01 X-36.9052 Y7.1140 
G01 X-36.7548 Y7.1140 
G01 X-36.6071 Y7.0846 
G01 X-36.4681 Y7.0270 
G01 X-36.3430 Y6.9434 
G00 Z2.5400 
G00 X-38.8830 Y6.9434 
G01 Z-0.2500 F254.00 
G01 X-38.7766 Y6.8370 F508.00 
G01 X-38.6930 Y6.7119 
G01 X-38.6354 Y6.5728 
G01 X-38.6060 Y6.4252 
G01 X-38.6060 Y6.2748 
G01 X-38.6354 Y6.1271 
G01 X-38.6930 Y5.9881 
G01 X-38.7766 Y5.8630 
G01 X-38.8830 Y5.7566 
G01 X-39.0081 Y5.6730 
G01 X-39.1471 Y5.6154 
G01 X-39.2948 Y5.5860 
G01 X-39.4452 Y5.5860 
G01 X-39.5928 Y5.6154 
G01 X-39.7319 Y5.6730 
G01 X-39.8570 Y5.7566 
G01 X-39.9634 Y5.8630 
G01 X-40.0470 Y5.9881 
G01 X-40.1046 Y6.1271 
G01 X-40.1340 Y6.2748 
G01 X-40.1340 Y6.4252 
G01 X-40.1046 Y6.5728 
G01 X-40.0470 Y6.7119 
G01 X-39.9634 Y6.8370 
G01 X-39.8570 Y6.9434 
G01 X-39.7319 Y7.0270 
G01 X-39.5928 Y7.0846 
G01 X-39.4452 Y7.1140 
G01 X-39.2948 Y7.1140 
G01 X-39.1471 Y7.0846 
G01 X-39.0081 Y7.0270 
G01 X-38.8830 Y6.9434 
G00 Z2.5400 
G00 X-38.8830 Y8.2966 
G01 Z-0.2500 F254.00 
G01 X-39.0081 Y8.2130 F508.00 
G01 X-39.1471 Y8.1554 
G01 X-39.2948 Y8.1260 
G01 X-39.4452 Y8.1260 
G01 X-39.5928 Y8.1554 
G01 X-39.7319 Y8.2130 
G01 X-39.8570 Y8.2966 
G01 X-39.9634 Y8.4030 
G01 X-40.0470 Y8.5281 
G01 X-40.1046 Y8.6671 
G01 X-40.1340 Y8.8148 
G01 X-40.1340 Y8.9652 
G01 X-40.1046 Y9.1128 
G01 X-40.0470 Y9.2519 
G01 X-39.9634 Y9.3770 
G01 X-39.8570 Y9.4834 
G01 X-39.7319 Y9.5670 
G01 X-39.5928 Y9.6246 
G01 X-39.4452 Y9.6540 
G01 X-39.2948 Y9.6540 
G01 X-39.1471 Y9.6246 
G01 X-39.0081 Y9.5670 
G01 X-38.8830 Y9.4834 
G01 X-38.7766 Y9.3770 
G01 X-38.6930 Y9.2519 
G01 X-38.6354 Y9.1128 
G01 X-38.6060 Y8.9652 
G01 X-38.6060 Y8.8148 
G01 X-38.6354 Y8.6671 
G01 X-38.6930 Y8.5281 
G01 X-38.7766 Y8.4030 
G01 X-38.8830 Y8.2966 
G00 Z2.5400 
G00 X-41.3166 Y8.4030 
G01 Z-0.2500 F254.00 
G01 X-41.4230 Y8.2966 F508.00 
G01 X-41.5481 Y8.2130 
G01 X-41.6871 Y8.1554 
G01 X-41.8347 Y8.1260 
G01 X-41.9852 Y8.1260 
G01 X-42.1328 Y8.1554 
G01 X-42.2719 Y8.2130 
G01 X-42.3970 Y8.2966 
G01 X-42.5034 Y8.4030 
G01 X-42.5870 Y8.5281 
G01 X-42.6446 Y8.6671 
G01 X-42.6740 Y8.8148 
G01 X-42.6740 Y8.9652 
G01 X-42.6446 Y9.1128 
G01 X-42.5870 Y9.2519 
G01 X-42.5034 Y9.3770 
G01 X-42.3970 Y9.4834 
G01 X-42.2719 Y9.5670 
G01 X-42.1328 Y9.6246 
G01 X-41.9852 Y9.6540 
G01 X-41.8347 Y9.6540 
G01 X-41.6871 Y9.6246 
G01 X-41.5481 Y9.5670 
G01 X-41.4230 Y9.4834 
G01 X-41.3166 Y9.3770 
G01 X-41.2330 Y9.2519 
G01 X-41.1754 Y9.1128 
G01 X-41.1460 Y8.9652 
G01 X-41.1460 Y8.8148 
G01 X-41.1754 Y8.6671 
G01 X-41.2330 Y8.5281 
G01 X-41.3166 Y8.4030 
G00 Z2.5400 
G00 X-41.4230 Y6.9434 
G01 Z-0.2500 F254.00 
G01 X-41.3166 Y6.8370 F508.00 
G01 X-41.2330 Y6.7119 
G01 X-41.1754 Y6.5728 
G01 X-41.1460 Y6.4252 
G01 X-41.1460 Y6.2748 
G01 X-41.1754 Y6.1271 
G01 X-41.2330 Y5.9881 
G01 X-41.3166 Y5.8630 
G01 X-41.4230 Y5.7566 
G01 X-41.5481 Y5.6730 
G01 X-41.6871 Y5.6154 
G01 X-41.8347 Y5.5860 
G01 X-41.9852 Y5.5860 
G01 X-42.1328 Y5.6154 
G01 X-42.2719 Y5.6730 
G01 X-42.3970 Y5.7566 
G01 X-42.5034 Y5.8630 
G01 X-42.5870 Y5.9881 
G01 X-42.6446 Y6.1271 
G01 X-42.6740 Y6.2748 
G01 X-42.6740 Y6.4252 
G01 X-42.6446 Y6.5728 
G01 X-42.5870 Y6.7119 
G01 X-42.5034 Y6.8370 
G01 X-42.3970 Y6.9434 
G01 X-42.2719 Y7.0270 
G01 X-42.1328 Y7.0846 
G01 X-41.9852 Y7.1140 
G01 X-41.8347 Y7.1140 
G01 X-41.6871 Y7.0846 
G01 X-41.5481 Y7.0270 
G01 X-41.4230 Y6.9434 
G00 Z2.5400 
G00 X-45.7426 Y7.1330 
G01 Z-0.2500 F254.00 
G01 X-45.8490 Y7.0266 F508.00 
G01 X-45.9741 Y6.9430 
G01 X-46.1131 Y6.8854 
G01 X-46.2608 Y6.8560 
G01 X-47.7192 Y6.8560 
G01 X-47.8668 Y6.8854 
G01 X-48.0059 Y6.9430 
G01 X-48.1310 Y7.0266 
G01 X-48.2374 Y7.1330 
G01 X-48.3210 Y7.2581 
G01 X-48.3786 Y7.3971 
G01 X-48.4080 Y7.5447 
G01 X-48.4080 Y7.6952 
G01 X-48.3786 Y7.8429 
G01 X-48.3210 Y7.9819 
G01 X-48.2374 Y8.1070 
G01 X-48.1310 Y8.2134 
G01 X-48.0059 Y8.2970 
G01 X-47.8668 Y8.3546 
G01 X-47.7192 Y8.3840 
G01 X-46.2608 Y8.3840 
G01 X-46.1131 Y8.3546 
G01 X-45.9741 Y8.2970 
G01 X-45.8490 Y8.2134 
G01 X-45.7426 Y8.1070 
G01 X-45.6590 Y7.9819 
G01 X-45.6014 Y7.8429 
G01 X-45.5720 Y7.6952 
G01 X-45.5720 Y7.5447 
G01 X-45.6014 Y7.3971 
G01 X-45.6590 Y7.2581 
G01 X-45.7426 Y7.1330 
G00 Z2.5400 
G00 X-45.7426 Y9.6730 
G01 Z-0.2500 F254.00 
G01 X-45.8490 Y9.5666 F508.00 
G01 X-45.9741 Y9.4830 
G01 X-46.1131 Y9.4254 
G01 X-46.2608 Y9.3960 
G01 X-47.7192 Y9.3960 
G01 X-47.8668 Y9.4254 
G01 X-48.0059 Y9.4830 
G01 X-48.1310 Y9.5666 
G01 X-48.2374 Y9.6730 
G01 X-48.3210 Y9.7981 
G01 X-48.3786 Y9.9371 
G01 X-48.4080 Y10.0847 
G01 X-48.4080 Y10.2352 
G01 X-48.3786 Y10.3828 
G01 X-48.3210 Y10.5219 
G01 X-48.2374 Y10.6470 
G01 X-48.1310 Y10.7534 
G01 X-48.0059 Y10.8370 
G01 X-47.8668 Y10.8946 
G01 X-47.7192 Y10.9240 
G01 X-46.2608 Y10.9240 
G01 X-46.1131 Y10.8946 
G01 X-45.9741 Y10.8370 
G01 X-45.8490 Y10.7534 
G01 X-45.7426 Y10.6470 
G01 X-45.6590 Y10.5219 
G01 X-45.6014 Y10.3828 
G01 X-45.5720 Y10.2352 
G01 X-45.5720 Y10.0847 
G01 X-45.6014 Y9.9371 
G01 X-45.6590 Y9.7981 
G01 X-45.7426 Y9.6730 
G00 Z2.5400 
G00 X-45.7426 Y12.2130 
G01 Z-0.2500 F254.00 
G01 X-45.8490 Y12.1066 F508.00 
G01 X-45.9741 Y12.0230 
G01 X-46.1131 Y11.9654 
G01 X-46.2608 Y11.9360 
G01 X-47.7192 Y11.9360 
G01 X-47.8668 Y11.9654 
G01 X-48.0059 Y12.0230 
G01 X-48.1310 Y12.1066 
G01 X-48.2374 Y12.2130 
G01 X-48.3210 Y12.3381 
G01 X-48.3786 Y12.4771 
G01 X-48.4080 Y12.6248 
G01 X-48.4080 Y12.7752 
G01 X-48.3786 Y12.9229 
G01 X-48.3210 Y13.0619 
G01 X-48.2374 Y13.1870 
G01 X-48.1310 Y13.2934 
G01 X-48.0059 Y13.3770 
G01 X-47.8668 Y13.4346 
G01 X-47.7192 Y13.4640 
G01 X-46.2608 Y13.4640 
G01 X-46.1131 Y13.4346 
G01 X-45.9741 Y13.3770 
G01 X-45.8490 Y13.2934 
G01 X-45.7426 Y13.1870 
G01 X-45.6590 Y13.0619 
G01 X-45.6014 Y12.9229 
G01 X-45.5720 Y12.7752 
G01 X-45.5720 Y12.6248 
G01 X-45.6014 Y12.4771 
G01 X-45.6590 Y12.3381 
G01 X-45.7426 Y12.2130 
G00 Z2.5400 
G00 X-45.7426 Y14.7530 
G01 Z-0.2500 F254.00 
G01 X-45.8490 Y14.6466 F508.00 
G01 X-45.9741 Y14.5630 
G01 X-46.1131 Y14.5054 
G01 X-46.2608 Y14.4760 
G01 X-47.7192 Y14.4760 
G01 X-47.8668 Y14.5054 
G01 X-48.0059 Y14.5630 
G01 X-48.1310 Y14.6466 
G01 X-48.2374 Y14.7530 
G01 X-48.3210 Y14.8781 
G01 X-48.3786 Y15.0171 
G01 X-48.4080 Y15.1647 
G01 X-48.4080 Y15.3152 
G01 X-48.3786 Y15.4628 
G01 X-48.3210 Y15.6019 
G01 X-48.2374 Y15.7270 
G01 X-48.1310 Y15.8334 
G01 X-48.0059 Y15.9170 
G01 X-47.8668 Y15.9746 
G01 X-47.7192 Y16.0040 
G01 X-46.2608 Y16.0040 
G01 X-46.1131 Y15.9746 
G01 X-45.9741 Y15.9170 
G01 X-45.8490 Y15.8334 
G01 X-45.7426 Y15.7270 
G01 X-45.6590 Y15.6019 
G01 X-45.6014 Y15.4628 
G01 X-45.5720 Y15.3152 
G01 X-45.5720 Y15.1647 
G01 X-45.6014 Y15.0171 
G01 X-45.6590 Y14.8781 
G01 X-45.7426 Y14.7530 
G00 Z2.5400 
G00 X-46.1652 Y17.0350 
G01 Z-0.2500 F254.00 
G01 X-46.2608 Y17.0160 F508.00 
G01 X-47.7192 Y17.0160 
G01 X-47.8668 Y17.0454 
G01 X-48.0059 Y17.1030 
G01 X-48.1310 Y17.1866 
G01 X-48.2374 Y17.2930 
G01 X-48.3210 Y17.4181 
G01 X-48.3786 Y17.5571 
G01 X-48.4080 Y17.7048 
G01 X-48.4080 Y17.8552 
G01 X-48.3786 Y18.0028 
G01 X-48.3210 Y18.1419 
G01 X-48.2374 Y18.2670 
G01 X-48.1310 Y18.3734 
G01 X-48.0059 Y18.4570 
G01 X-47.8668 Y18.5146 
G01 X-47.7192 Y18.5440 
G01 X-46.2608 Y18.5440 
G01 X-46.1652 Y18.5250 
G01 X-38.8450 Y18.5250 
G01 X-38.8450 Y45.7934 
G01 X-38.8164 Y45.9373 
G01 X-38.7602 Y46.0729 
G01 X-38.6787 Y46.1949 
G01 X-38.5749 Y46.2987 
G01 X-38.4529 Y46.3802 
G01 X-38.3173 Y46.4364 
G01 X-38.1734 Y46.4650 
G01 X-26.4244 Y46.4650 
G01 X-26.4244 Y48.0672 
G01 X-26.3973 Y48.2383 
G01 X-26.3438 Y48.4031 
G01 X-26.2651 Y48.5574 
G01 X-26.1633 Y48.6976 
G01 X-26.0408 Y48.8201 
G01 X-25.9006 Y48.9219 
G01 X-25.7463 Y49.0006 
G01 X-25.5815 Y49.0541 
G01 X-25.4104 Y49.0812 
G01 X-25.2372 Y49.0812 
G01 X-25.0661 Y49.0541 
G01 X-24.9013 Y49.0006 
G01 X-24.7470 Y48.9219 
G01 X-24.6068 Y48.8201 
G01 X-24.4843 Y48.6976 
G01 X-24.3825 Y48.5574 
G01 X-24.3038 Y48.4031 
G01 X-24.2503 Y48.2383 
G01 X-24.2232 Y48.0672 
G01 X-24.2232 Y45.9128 
G01 X-24.2503 Y45.7417 
G01 X-24.3038 Y45.5769 
G01 X-24.3825 Y45.4226 
G01 X-24.4843 Y45.2824 
G01 X-24.6068 Y45.1599 
G01 X-24.7470 Y45.0581 
G01 X-24.9013 Y44.9794 
G01 X-25.0661 Y44.9259 
G01 X-25.2372 Y44.8988 
G01 X-25.4104 Y44.8988 
G01 X-25.5815 Y44.9259 
G01 X-25.7326 Y44.9750 
G01 X-37.3550 Y44.9750 
G01 X-37.3550 Y17.8534 
G01 X-37.3550 Y17.7066 
G01 X-37.3836 Y17.5627 
G01 X-37.4398 Y17.4271 
G01 X-37.5213 Y17.3051 
G01 X-37.6251 Y17.2013 
G01 X-37.7471 Y17.1198 
G01 X-37.8827 Y17.0636 
G01 X-38.0266 Y17.0350 
G01 X-46.1652 Y17.0350 
G00 Z2.5400 
G00 X-46.1131 Y19.5854 
G01 Z-0.2500 F254.00 
G01 X-46.2608 Y19.5560 F508.00 
G01 X-47.7192 Y19.5560 
G01 X-47.8668 Y19.5854 
G01 X-48.0059 Y19.6430 
G01 X-48.1310 Y19.7266 
G01 X-48.2374 Y19.8330 
G01 X-48.3210 Y19.9581 
G01 X-48.3786 Y20.0971 
G01 X-48.4080 Y20.2447 
G01 X-48.4080 Y20.3952 
G01 X-48.3786 Y20.5429 
G01 X-48.3210 Y20.6819 
G01 X-48.2374 Y20.8070 
G01 X-48.1310 Y20.9134 
G01 X-48.0059 Y20.9970 
G01 X-47.8668 Y21.0546 
G01 X-47.7192 Y21.0840 
G01 X-46.2608 Y21.0840 
G01 X-46.1131 Y21.0546 
G01 X-45.9741 Y20.9970 
G01 X-45.8490 Y20.9134 
G01 X-45.7426 Y20.8070 
G01 X-45.6590 Y20.6819 
G01 X-45.6014 Y20.5429 
G01 X-45.5720 Y20.3952 
G01 X-45.5720 Y20.2447 
G01 X-45.6014 Y20.0971 
G01 X-45.6590 Y19.9581 
G01 X-45.7426 Y19.8330 
G01 X-45.8490 Y19.7266 
G01 X-45.9741 Y19.6430 
G01 X-46.1131 Y19.5854 
G00 Z2.5400 
G00 X-46.1131 Y22.1254 
G01 Z-0.2500 F254.00 
G01 X-46.2608 Y22.0960 F508.00 
G01 X-47.7192 Y22.0960 
G01 X-47.8668 Y22.1254 
G01 X-48.0059 Y22.1830 
G01 X-48.1310 Y22.2666 
G01 X-48.2374 Y22.3730 
G01 X-48.3210 Y22.4981 
G01 X-48.3786 Y22.6371 
G01 X-48.4080 Y22.7847 
G01 X-48.4080 Y22.9352 
G01 X-48.3786 Y23.0829 
G01 X-48.3210 Y23.2219 
G01 X-48.2374 Y23.3470 
G01 X-48.1310 Y23.4534 
G01 X-48.0059 Y23.5370 
G01 X-47.8668 Y23.5946 
G01 X-47.7192 Y23.6240 
G01 X-46.2608 Y23.6240 
G01 X-46.1131 Y23.5946 
G01 X-45.9741 Y23.5370 
G01 X-45.8490 Y23.4534 
G01 X-45.7426 Y23.3470 
G01 X-45.6590 Y23.2219 
G01 X-45.6014 Y23.0829 
G01 X-45.5720 Y22.9352 
G01 X-45.5720 Y22.7847 
G01 X-45.6014 Y22.6371 
G01 X-45.6590 Y22.4981 
G01 X-45.7426 Y22.3730 
G01 X-45.8490 Y22.2666 
G01 X-45.9741 Y22.1830 
G01 X-46.1131 Y22.1254 
G00 Z2.5400 
G00 X-46.1131 Y24.6654 
G01 Z-0.2500 F254.00 
G01 X-46.2608 Y24.6360 F508.00 
G01 X-47.7192 Y24.6360 
G01 X-47.8668 Y24.6654 
G01 X-48.0059 Y24.7230 
G01 X-48.1310 Y24.8066 
G01 X-48.2374 Y24.9130 
G01 X-48.3210 Y25.0381 
G01 X-48.3786 Y25.1771 
G01 X-48.4080 Y25.3248 
G01 X-48.4080 Y25.4752 
G01 X-48.3786 Y25.6228 
G01 X-48.3210 Y25.7619 
G01 X-48.2374 Y25.8870 
G01 X-48.1310 Y25.9934 
G01 X-48.0059 Y26.0770 
G01 X-47.8668 Y26.1346 
G01 X-47.7192 Y26.1640 
G01 X-46.2608 Y26.1640 
G01 X-46.1131 Y26.1346 
G01 X-45.9741 Y26.0770 
G01 X-45.8490 Y25.9934 
G01 X-45.7426 Y25.8870 
G01 X-45.6590 Y25.7619 
G01 X-45.6014 Y25.6228 
G01 X-45.5720 Y25.4752 
G01 X-45.5720 Y25.3248 
G01 X-45.6014 Y25.1771 
G01 X-45.6590 Y25.0381 
G01 X-45.7426 Y24.9130 
G01 X-45.8490 Y24.8066 
G01 X-45.9741 Y24.7230 
G01 X-46.1131 Y24.6654 
G00 Z2.5400 
G00 X-46.1652 Y27.1950 
G01 Z-0.2500 F254.00 
G01 X-46.2608 Y27.1760 F508.00 
G01 X-47.7192 Y27.1760 
G01 X-47.8148 Y27.1950 
G01 X-51.3250 Y27.1950 
G01 X-51.3250 Y22.7358 
G01 X-51.3536 Y22.5919 
G01 X-51.4098 Y22.4563 
G01 X-51.4913 Y22.3343 
G01 X-51.5951 Y22.2305 
G01 X-51.7171 Y22.1490 
G01 X-51.8527 Y22.0928 
G01 X-51.9966 Y22.0642 
G01 X-57.8879 Y22.0642 
G01 X-57.9824 Y21.9697 
G01 X-58.1226 Y21.8679 
G01 X-58.2769 Y21.7892 
G01 X-58.4417 Y21.7357 
G01 X-58.6128 Y21.7086 
G01 X-60.7672 Y21.7086 
G01 X-60.9383 Y21.7357 
G01 X-61.1031 Y21.7892 
G01 X-61.2574 Y21.8679 
G01 X-61.3976 Y21.9697 
G01 X-61.5201 Y22.0922 
G01 X-61.6219 Y22.2324 
G01 X-61.7006 Y22.3867 
G01 X-61.7541 Y22.5515 
G01 X-61.7812 Y22.7226 
G01 X-61.7812 Y22.8958 
G01 X-61.7541 Y23.0669 
G01 X-61.7006 Y23.2317 
G01 X-61.6219 Y23.3860 
G01 X-61.5201 Y23.5262 
G01 X-61.3976 Y23.6487 
G01 X-61.2574 Y23.7505 
G01 X-61.1031 Y23.8292 
G01 X-60.9383 Y23.8827 
G01 X-60.7672 Y23.9098 
G01 X-58.6128 Y23.9098 
G01 X-58.4417 Y23.8827 
G01 X-58.2769 Y23.8292 
G01 X-58.1226 Y23.7505 
G01 X-57.9824 Y23.6487 
G01 X-57.8879 Y23.5542 
G01 X-52.8150 Y23.5542 
G01 X-52.8150 Y28.0134 
G01 X-52.7864 Y28.1573 
G01 X-52.7302 Y28.2929 
G01 X-52.6487 Y28.4149 
G01 X-52.5449 Y28.5187 
G01 X-52.4229 Y28.6002 
G01 X-52.2873 Y28.6564 
G01 X-52.1434 Y28.6850 
G01 X-47.8148 Y28.6850 
G01 X-47.7192 Y28.7040 
G01 X-46.2608 Y28.7040 
G01 X-46.1652 Y28.6850 
G01 X-45.6466 Y28.6850 
G01 X-45.5027 Y28.6564 
G01 X-45.3671 Y28.6002 
G01 X-45.2451 Y28.5187 
G01 X-45.1413 Y28.4149 
G01 X-45.0598 Y28.2929 
G01 X-45.0036 Y28.1573 
G01 X-44.9750 Y28.0134 
G01 X-44.9750 Y27.8666 
G01 X-45.0036 Y27.7227 
G01 X-45.0598 Y27.5871 
G01 X-45.1413 Y27.4651 
G01 X-45.2451 Y27.3613 
G01 X-45.3671 Y27.2798 
G01 X-45.5027 Y27.2236 
G01 X-45.6466 Y27.1950 
G01 X-46.1652 Y27.1950 
G00 Z2.5400 
G00 X-46.1131 Y29.7454 
G01 Z-0.2500 F254.00 
G01 X-46.2608 Y29.7160 F508.00 
G01 X-47.7192 Y29.7160 
G01 X-47.8148 Y29.7350 
G01 X-53.8650 Y29.7350 
G01 X-53.8650 Y27.8666 
G01 X-53.8936 Y27.7227 
G01 X-53.9498 Y27.5871 
G01 X-54.0313 Y27.4651 
G01 X-54.1351 Y27.3613 
G01 X-54.2571 Y27.2798 
G01 X-54.3927 Y27.2236 
G01 X-54.5366 Y27.1950 
G01 X-57.8064 Y27.1950 
G01 X-57.8599 Y27.1214 
G01 X-57.9824 Y26.9989 
G01 X-58.1226 Y26.8971 
G01 X-58.2769 Y26.8184 
G01 X-58.4417 Y26.7649 
G01 X-58.6128 Y26.7378 
G01 X-60.7672 Y26.7378 
G01 X-60.9383 Y26.7649 
G01 X-61.1031 Y26.8184 
G01 X-61.2574 Y26.8971 
G01 X-61.3976 Y26.9989 
G01 X-61.5201 Y27.1214 
G01 X-61.6219 Y27.2616 
G01 X-61.7006 Y27.4159 
G01 X-61.7541 Y27.5807 
G01 X-61.7812 Y27.7518 
G01 X-61.7812 Y27.9250 
G01 X-61.7541 Y28.0961 
G01 X-61.7006 Y28.2609 
G01 X-61.6219 Y28.4152 
G01 X-61.5201 Y28.5554 
G01 X-61.3976 Y28.6779 
G01 X-61.2574 Y28.7797 
G01 X-61.1031 Y28.8584 
G01 X-60.9383 Y28.9119 
G01 X-60.7672 Y28.9390 
G01 X-58.6128 Y28.9390 
G01 X-58.4417 Y28.9119 
G01 X-58.2769 Y28.8584 
G01 X-58.1226 Y28.7797 
G01 X-57.9922 Y28.6850 
G01 X-55.3550 Y28.6850 
G01 X-55.3550 Y30.5534 
G01 X-55.3264 Y30.6973 
G01 X-55.2702 Y30.8329 
G01 X-55.1887 Y30.9549 
G01 X-55.0849 Y31.0587 
G01 X-54.9629 Y31.1402 
G01 X-54.8273 Y31.1964 
G01 X-54.6834 Y31.2250 
G01 X-47.8148 Y31.2250 
G01 X-47.7192 Y31.2440 
G01 X-46.2608 Y31.2440 
G01 X-46.1131 Y31.2146 
G01 X-45.9741 Y31.1570 
G01 X-45.8490 Y31.0734 
G01 X-45.7426 Y30.9670 
G01 X-45.6590 Y30.8419 
G01 X-45.6014 Y30.7029 
G01 X-45.5720 Y30.5552 
G01 X-45.5720 Y30.4047 
G01 X-45.6014 Y30.2571 
G01 X-45.6590 Y30.1181 
G01 X-45.7426 Y29.9930 
G01 X-45.8490 Y29.8866 
G01 X-45.9741 Y29.8030 
G01 X-46.1131 Y29.7454 
G00 Z2.5400 
G00 X-46.1131 Y32.2854 
G01 Z-0.2500 F254.00 
G01 X-46.2608 Y32.2560 F508.00 
G01 X-47.7192 Y32.2560 
G01 X-47.8148 Y32.2750 
G01 X-59.7634 Y32.2750 
G01 X-59.9073 Y32.3036 
G01 X-60.0429 Y32.3598 
G01 X-60.1649 Y32.4413 
G01 X-60.2687 Y32.5451 
G01 X-60.3502 Y32.6671 
G01 X-60.4064 Y32.8027 
G01 X-60.4350 Y32.9466 
G01 X-60.4350 Y33.2910 
G01 X-60.7672 Y33.2910 
G01 X-60.9383 Y33.3181 
G01 X-61.1031 Y33.3716 
G01 X-61.2574 Y33.4503 
G01 X-61.3976 Y33.5521 
G01 X-61.5201 Y33.6746 
G01 X-61.6219 Y33.8148 
G01 X-61.7006 Y33.9691 
G01 X-61.7541 Y34.1339 
G01 X-61.7812 Y34.3050 
G01 X-61.7812 Y34.4782 
G01 X-61.7541 Y34.6493 
G01 X-61.7006 Y34.8141 
G01 X-61.6219 Y34.9684 
G01 X-61.5201 Y35.1086 
G01 X-61.3976 Y35.2311 
G01 X-61.2574 Y35.3329 
G01 X-61.1031 Y35.4116 
G01 X-60.9383 Y35.4651 
G01 X-60.7672 Y35.4922 
G01 X-58.6128 Y35.4922 
G01 X-58.4417 Y35.4651 
G01 X-58.2769 Y35.4116 
G01 X-58.1226 Y35.3329 
G01 X-57.9824 Y35.2311 
G01 X-57.8599 Y35.1086 
G01 X-57.7581 Y34.9684 
G01 X-57.6794 Y34.8141 
G01 X-57.6259 Y34.6493 
G01 X-57.5988 Y34.4782 
G01 X-57.5988 Y34.3050 
G01 X-57.6259 Y34.1339 
G01 X-57.6794 Y33.9691 
G01 X-57.7581 Y33.8148 
G01 X-57.7942 Y33.7650 
G01 X-47.8148 Y33.7650 
G01 X-47.7192 Y33.7840 
G01 X-46.2608 Y33.7840 
G01 X-46.1131 Y33.7546 
G01 X-45.9741 Y33.6970 
G01 X-45.8490 Y33.6134 
G01 X-45.7426 Y33.5070 
G01 X-45.6590 Y33.3819 
G01 X-45.6014 Y33.2428 
G01 X-45.5720 Y33.0952 
G01 X-45.5720 Y32.9447 
G01 X-45.6014 Y32.7971 
G01 X-45.6590 Y32.6581 
G01 X-45.7426 Y32.5330 
G01 X-45.8490 Y32.4266 
G01 X-45.9741 Y32.3430 
G01 X-46.1131 Y32.2854 
G00 Z2.5400 
G00 X-46.1131 Y34.8254 
G01 Z-0.2500 F254.00 
G01 X-46.2608 Y34.7960 F508.00 
G01 X-47.7192 Y34.7960 
G01 X-47.8148 Y34.8150 
G01 X-55.8091 Y34.8150 
G01 X-55.8823 Y34.8150 
G01 X-55.9534 Y34.8150 
G01 X-55.9583 Y34.8155 
G01 X-56.0279 Y34.8298 
G01 X-56.0973 Y34.8436 
G01 X-56.1020 Y34.8451 
G01 X-56.1676 Y34.8728 
G01 X-56.2329 Y34.8998 
G01 X-56.2373 Y34.9021 
G01 X-56.2959 Y34.9419 
G01 X-56.3549 Y34.9813 
G01 X-56.3587 Y34.9845 
G01 X-56.4082 Y35.0346 
G01 X-56.4587 Y35.0851 
G01 X-59.6506 Y38.3202 
G01 X-60.7672 Y38.3202 
G01 X-60.9383 Y38.3473 
G01 X-61.1031 Y38.4008 
G01 X-61.2574 Y38.4795 
G01 X-61.3976 Y38.5813 
G01 X-61.5201 Y38.7038 
G01 X-61.6219 Y38.8440 
G01 X-61.7006 Y38.9983 
G01 X-61.7541 Y39.1631 
G01 X-61.7812 Y39.3342 
G01 X-61.7812 Y39.5074 
G01 X-61.7541 Y39.6785 
G01 X-61.7006 Y39.8433 
G01 X-61.6219 Y39.9976 
G01 X-61.5201 Y40.1378 
G01 X-61.3976 Y40.2603 
G01 X-61.2574 Y40.3621 
G01 X-61.1031 Y40.4408 
G01 X-60.9383 Y40.4943 
G01 X-60.7672 Y40.5214 
G01 X-58.6128 Y40.5214 
G01 X-58.4417 Y40.4943 
G01 X-58.2769 Y40.4408 
G01 X-58.1226 Y40.3621 
G01 X-57.9824 Y40.2603 
G01 X-57.8599 Y40.1378 
G01 X-57.7581 Y39.9976 
G01 X-57.6794 Y39.8433 
G01 X-57.6259 Y39.6785 
G01 X-57.5988 Y39.5074 
G01 X-57.5988 Y39.3342 
G01 X-57.6259 Y39.1631 
G01 X-57.6794 Y38.9983 
G01 X-57.7581 Y38.8440 
G01 X-57.8599 Y38.7038 
G01 X-57.8981 Y38.6656 
G01 X-55.5685 Y36.3050 
G01 X-47.8148 Y36.3050 
G01 X-47.7192 Y36.3240 
G01 X-46.2608 Y36.3240 
G01 X-46.1131 Y36.2946 
G01 X-45.9741 Y36.2370 
G01 X-45.8490 Y36.1534 
G01 X-45.7426 Y36.0470 
G01 X-45.6590 Y35.9219 
G01 X-45.6014 Y35.7829 
G01 X-45.5720 Y35.6352 
G01 X-45.5720 Y35.4847 
G01 X-45.6014 Y35.3371 
G01 X-45.6590 Y35.1981 
G01 X-45.7426 Y35.0730 
G01 X-45.8490 Y34.9666 
G01 X-45.9741 Y34.8830 
G01 X-46.1131 Y34.8254 
G00 Z2.5400 
G00 X-46.1131 Y37.3654 
G01 Z-0.2500 F254.00 
G01 X-46.2608 Y37.3360 F508.00 
G01 X-47.7192 Y37.3360 
G01 X-47.8148 Y37.3550 
G01 X-50.8734 Y37.3550 
G01 X-51.0173 Y37.3836 
G01 X-51.1529 Y37.4398 
G01 X-51.2749 Y37.5213 
G01 X-51.3787 Y37.6251 
G01 X-51.4602 Y37.7471 
G01 X-51.5164 Y37.8827 
G01 X-51.5450 Y38.0266 
G01 X-51.5450 Y43.6542 
G01 X-57.8879 Y43.6542 
G01 X-57.9824 Y43.5597 
G01 X-58.1226 Y43.4579 
G01 X-58.2769 Y43.3792 
G01 X-58.4417 Y43.3257 
G01 X-58.6128 Y43.2986 
G01 X-60.7672 Y43.2986 
G01 X-60.9383 Y43.3257 
G01 X-61.1031 Y43.3792 
G01 X-61.2574 Y43.4579 
G01 X-61.3976 Y43.5597 
G01 X-61.5201 Y43.6822 
G01 X-61.6219 Y43.8224 
G01 X-61.7006 Y43.9767 
G01 X-61.7541 Y44.1415 
G01 X-61.7812 Y44.3126 
G01 X-61.7812 Y44.4858 
G01 X-61.7541 Y44.6569 
G01 X-61.7006 Y44.8217 
G01 X-61.6219 Y44.9760 
G01 X-61.5201 Y45.1162 
G01 X-61.3976 Y45.2387 
G01 X-61.2574 Y45.3405 
G01 X-61.1031 Y45.4192 
G01 X-60.9383 Y45.4727 
G01 X-60.7672 Y45.4998 
G01 X-58.6128 Y45.4998 
G01 X-58.4417 Y45.4727 
G01 X-58.2769 Y45.4192 
G01 X-58.1226 Y45.3405 
G01 X-57.9824 Y45.2387 
G01 X-57.8879 Y45.1442 
G01 X-50.7266 Y45.1442 
G01 X-50.5827 Y45.1156 
G01 X-50.4471 Y45.0594 
G01 X-50.3251 Y44.9779 
G01 X-50.2213 Y44.8741 
G01 X-50.1398 Y44.7521 
G01 X-50.0836 Y44.6165 
G01 X-50.0550 Y44.4726 
G01 X-50.0550 Y38.8450 
G01 X-47.8148 Y38.8450 
G01 X-47.7192 Y38.8640 
G01 X-46.2608 Y38.8640 
G01 X-46.1131 Y38.8346 
G01 X-45.9741 Y38.7770 
G01 X-45.8490 Y38.6934 
G01 X-45.7426 Y38.5870 
G01 X-45.6590 Y38.4619 
G01 X-45.6014 Y38.3229 
G01 X-45.5720 Y38.1752 
G01 X-45.5720 Y38.0247 
G01 X-45.6014 Y37.8771 
G01 X-45.6590 Y37.7381 
G01 X-45.7426 Y37.6130 
G01 X-45.8490 Y37.5066 
G01 X-45.9741 Y37.4230 
G01 X-46.1131 Y37.3654 
G00 Z2.5400 
G00 X-46.1131 Y39.9054 
G01 Z-0.2500 F254.00 
G01 X-46.2608 Y39.8760 F508.00 
G01 X-47.7192 Y39.8760 
G01 X-47.8668 Y39.9054 
G01 X-48.0059 Y39.9630 
G01 X-48.1310 Y40.0466 
G01 X-48.2374 Y40.1530 
G01 X-48.3210 Y40.2781 
G01 X-48.3786 Y40.4171 
G01 X-48.4080 Y40.5647 
G01 X-48.4080 Y40.7152 
G01 X-48.3786 Y40.8629 
G01 X-48.3210 Y41.0019 
G01 X-48.2374 Y41.1270 
G01 X-48.1310 Y41.2334 
G01 X-48.0059 Y41.3170 
G01 X-47.8668 Y41.3746 
G01 X-47.7192 Y41.4040 
G01 X-46.2608 Y41.4040 
G01 X-46.1131 Y41.3746 
G01 X-45.9741 Y41.3170 
G01 X-45.8490 Y41.2334 
G01 X-45.7426 Y41.1270 
G01 X-45.6590 Y41.0019 
G01 X-45.6014 Y40.8629 
G01 X-45.5720 Y40.7152 
G01 X-45.5720 Y40.5647 
G01 X-45.6014 Y40.4171 
G01 X-45.6590 Y40.2781 
G01 X-45.7426 Y40.1530 
G01 X-45.8490 Y40.0466 
G01 X-45.9741 Y39.9630 
G01 X-46.1131 Y39.9054 
G00 Z2.5400 
G00 X-46.1131 Y42.4454 
G01 Z-0.2500 F254.00 
G01 X-46.2608 Y42.4160 F508.00 
G01 X-47.7192 Y42.4160 
G01 X-47.8668 Y42.4454 
G01 X-48.0059 Y42.5030 
G01 X-48.1310 Y42.5866 
G01 X-48.2374 Y42.6930 
G01 X-48.3210 Y42.8181 
G01 X-48.3786 Y42.9571 
G01 X-48.4080 Y43.1048 
G01 X-48.4080 Y43.2552 
G01 X-48.3786 Y43.4029 
G01 X-48.3210 Y43.5419 
G01 X-48.2374 Y43.6670 
G01 X-48.1310 Y43.7734 
G01 X-48.0059 Y43.8570 
G01 X-47.8668 Y43.9146 
G01 X-47.7192 Y43.9440 
G01 X-46.2608 Y43.9440 
G01 X-46.1131 Y43.9146 
G01 X-45.9741 Y43.8570 
G01 X-45.8490 Y43.7734 
G01 X-45.7426 Y43.6670 
G01 X-45.6590 Y43.5419 
G01 X-45.6014 Y43.4029 
G01 X-45.5720 Y43.2552 
G01 X-45.5720 Y43.1048 
G01 X-45.6014 Y42.9571 
G01 X-45.6590 Y42.8181 
G01 X-45.7426 Y42.6930 
G01 X-45.8490 Y42.5866 
G01 X-45.9741 Y42.5030 
G01 X-46.1131 Y42.4454 
G00 Z2.5400 
G00 X-32.8910 Y42.5866 
G01 Z-0.2500 F254.00 
G01 X-32.9974 Y42.6930 F508.00 
G01 X-33.0810 Y42.8181 
G01 X-33.1386 Y42.9571 
G01 X-33.1680 Y43.1048 
G01 X-33.1680 Y43.2552 
G01 X-33.1386 Y43.4029 
G01 X-33.0810 Y43.5419 
G01 X-32.9974 Y43.6670 
G01 X-32.8910 Y43.7734 
G01 X-32.7659 Y43.8570 
G01 X-32.6268 Y43.9146 
G01 X-32.4792 Y43.9440 
G01 X-31.0207 Y43.9440 
G01 X-30.8731 Y43.9146 
G01 X-30.7341 Y43.8570 
G01 X-30.6090 Y43.7734 
G01 X-30.5026 Y43.6670 
G01 X-30.4190 Y43.5419 
G01 X-30.3614 Y43.4029 
G01 X-30.3320 Y43.2552 
G01 X-30.3320 Y43.1048 
G01 X-30.3614 Y42.9571 
G01 X-30.4190 Y42.8181 
G01 X-30.5026 Y42.6930 
G01 X-30.6090 Y42.5866 
G01 X-30.7341 Y42.5030 
G01 X-30.8731 Y42.4454 
G01 X-31.0207 Y42.4160 
G01 X-32.4792 Y42.4160 
G01 X-32.6268 Y42.4454 
G01 X-32.7659 Y42.5030 
G01 X-32.8910 Y42.5866 
G00 Z2.5400 
G00 X-32.8910 Y41.2334 
G01 Z-0.2500 F254.00 
G01 X-32.7659 Y41.3170 F508.00 
G01 X-32.6268 Y41.3746 
G01 X-32.4792 Y41.4040 
G01 X-31.0207 Y41.4040 
G01 X-30.8731 Y41.3746 
G01 X-30.7341 Y41.3170 
G01 X-30.6090 Y41.2334 
G01 X-30.5026 Y41.1270 
G01 X-30.4190 Y41.0019 
G01 X-30.3614 Y40.8629 
G01 X-30.3320 Y40.7152 
G01 X-30.3320 Y40.5647 
G01 X-30.3614 Y40.4171 
G01 X-30.4190 Y40.2781 
G01 X-30.5026 Y40.1530 
G01 X-30.6090 Y40.0466 
G01 X-30.7341 Y39.9630 
G01 X-30.8731 Y39.9054 
G01 X-31.0207 Y39.8760 
G01 X-32.4792 Y39.8760 
G01 X-32.6268 Y39.9054 
G01 X-32.7659 Y39.9630 
G01 X-32.8910 Y40.0466 
G01 X-32.9974 Y40.1530 
G01 X-33.0810 Y40.2781 
G01 X-33.1386 Y40.4171 
G01 X-33.1680 Y40.5647 
G01 X-33.1680 Y40.7152 
G01 X-33.1386 Y40.8629 
G01 X-33.0810 Y41.0019 
G01 X-32.9974 Y41.1270 
G01 X-32.8910 Y41.2334 
G00 Z2.5400 
G00 X-32.8910 Y38.6934 
G01 Z-0.2500 F254.00 
G01 X-32.7659 Y38.7770 F508.00 
G01 X-32.6268 Y38.8346 
G01 X-32.4792 Y38.8640 
G01 X-31.0207 Y38.8640 
G01 X-30.8731 Y38.8346 
G01 X-30.7341 Y38.7770 
G01 X-30.6090 Y38.6934 
G01 X-30.5026 Y38.5870 
G01 X-30.4190 Y38.4619 
G01 X-30.3614 Y38.3229 
G01 X-30.3320 Y38.1752 
G01 X-30.3320 Y38.0247 
G01 X-30.3614 Y37.8771 
G01 X-30.4190 Y37.7381 
G01 X-30.5026 Y37.6130 
G01 X-30.6090 Y37.5066 
G01 X-30.7341 Y37.4230 
G01 X-30.8731 Y37.3654 
G01 X-31.0207 Y37.3360 
G01 X-32.4792 Y37.3360 
G01 X-32.6268 Y37.3654 
G01 X-32.7659 Y37.4230 
G01 X-32.8910 Y37.5066 
G01 X-32.9974 Y37.6130 
G01 X-33.0810 Y37.7381 
G01 X-33.1386 Y37.8771 
G01 X-33.1680 Y38.0247 
G01 X-33.1680 Y38.1752 
G01 X-33.1386 Y38.3229 
G01 X-33.0810 Y38.4619 
G01 X-32.9974 Y38.5870 
G01 X-32.8910 Y38.6934 
G00 Z2.5400 
G00 X-36.6607 Y61.6741 
G01 Z-0.2500 F254.00 
G01 X-36.7821 Y61.5527 F508.00 
G01 X-36.9250 Y61.4572 
G01 X-37.0836 Y61.3915 
G01 X-37.2521 Y61.3580 
G01 X-38.9479 Y61.3580 
G01 X-39.1164 Y61.3915 
G01 X-39.2750 Y61.4572 
G01 X-39.3166 Y61.4850 
G01 X-57.7446 Y61.4850 
G01 X-57.6794 Y61.3571 
G01 X-57.6259 Y61.1923 
G01 X-57.5988 Y61.0212 
G01 X-57.5988 Y60.8480 
G01 X-57.6259 Y60.6769 
G01 X-57.6794 Y60.5121 
G01 X-57.7581 Y60.3578 
G01 X-57.8599 Y60.2176 
G01 X-57.9824 Y60.0951 
G01 X-58.1226 Y59.9933 
G01 X-58.2769 Y59.9146 
G01 X-58.4417 Y59.8611 
G01 X-58.6128 Y59.8340 
G01 X-60.7672 Y59.8340 
G01 X-60.9383 Y59.8611 
G01 X-61.1031 Y59.9146 
G01 X-61.2574 Y59.9933 
G01 X-61.3976 Y60.0951 
G01 X-61.5201 Y60.2176 
G01 X-61.6219 Y60.3578 
G01 X-61.7006 Y60.5121 
G01 X-61.7541 Y60.6769 
G01 X-61.7812 Y60.8480 
G01 X-61.7812 Y61.0212 
G01 X-61.7541 Y61.1923 
G01 X-61.7006 Y61.3571 
G01 X-61.6219 Y61.5114 
G01 X-61.5201 Y61.6516 
G01 X-61.3976 Y61.7741 
G01 X-61.2574 Y61.8759 
G01 X-61.1031 Y61.9546 
G01 X-60.9383 Y62.0081 
G01 X-60.7672 Y62.0352 
G01 X-60.4350 Y62.0352 
G01 X-60.4350 Y62.3034 
G01 X-60.4064 Y62.4473 
G01 X-60.3502 Y62.5829 
G01 X-60.2687 Y62.7049 
G01 X-60.1649 Y62.8087 
G01 X-60.0429 Y62.8902 
G01 X-59.9073 Y62.9464 
G01 X-59.7634 Y62.9750 
G01 X-39.3166 Y62.9750 
G01 X-39.2750 Y63.0028 
G01 X-39.1164 Y63.0685 
G01 X-38.9479 Y63.1020 
G01 X-37.2521 Y63.1020 
G01 X-37.0836 Y63.0685 
G01 X-36.9250 Y63.0028 
G01 X-36.7821 Y62.9073 
G01 X-36.6607 Y62.7859 
G01 X-36.5652 Y62.6430 
G01 X-36.4995 Y62.4844 
G01 X-36.4660 Y62.3159 
G01 X-36.4660 Y62.1441 
G01 X-36.4995 Y61.9756 
G01 X-36.5652 Y61.8169 
G01 X-36.6607 Y61.6741 
G00 Z2.5400 
G00 X-62.7042 Y63.3883 
G01 Z-0.2500 F254.00 
G01 X-64.6583 Y61.4342 F508.00 
G01 X-67.4217 Y61.4342 
G01 X-69.3758 Y63.3883 
G01 X-69.3758 Y66.1517 
G01 X-67.4217 Y68.1058 
G01 X-64.6583 Y68.1058 
G01 X-62.7042 Y66.1517 
G01 X-62.7042 Y63.3883 
G00 Z2.5400 
G00 X-9.6858 Y63.3883 
G01 Z-0.2500 F254.00 
G01 X-9.6858 Y66.1517 F508.00 
G01 X-7.7317 Y68.1058 
G01 X-4.9683 Y68.1058 
G01 X-3.0142 Y66.1517 
G01 X-3.0142 Y63.3883 
G01 X-4.9683 Y61.4342 
G01 X-7.7317 Y61.4342 
G01 X-9.6858 Y63.3883 
G00 Z2.5400 
G00 X-64.6583 Y8.4158 
G01 Z-0.2500 F254.00 
G01 X-62.7042 Y6.4617 F508.00 
G01 X-62.7042 Y3.6983 
G01 X-64.6583 Y1.7442 
G01 X-67.4217 Y1.7442 
G01 X-69.3758 Y3.6983 
G01 X-69.3758 Y6.4617 
G01 X-67.4217 Y8.4158 
G01 X-64.6583 Y8.4158 
G00 Z2.5400 
G00 X-2.9142 Y3.6568 
G01 Z-0.2500 F254.00 
G01 X-4.9268 Y1.6442 F508.00 
G01 X-7.7732 Y1.6442 
G01 X-9.7858 Y3.6568 
G01 X-9.7858 Y6.5032 
G01 X-7.7732 Y8.5158 
G01 X-4.9268 Y8.5158 
G01 X-2.9142 Y6.5032 
G01 X-2.9142 Y3.6568 
G00 Z2.5400 
G00 X-9.5036 Y13.4313 
G01 Z-0.2500 F254.00 
G01 X-9.6213 Y13.3136 F508.00 
G01 X-9.7597 Y13.2212 
G01 X-9.9135 Y13.1575 
G01 X-10.0768 Y13.1250 
G01 X-22.0150 Y13.1250 
G01 X-22.0150 Y1.1868 
G01 X-22.0475 Y1.0235 
G01 X-22.1112 Y0.8697 
G01 X-22.2036 Y0.7313 
G01 X-22.3213 Y0.6136 
G01 X-22.4597 Y0.5212 
G01 X-22.6135 Y0.4575 
G01 X-22.7768 Y0.4250 
G01 X-59.7732 Y0.4250 
G01 X-59.9365 Y0.4575 
G01 X-60.0903 Y0.5212 
G01 X-60.2287 Y0.6136 
G01 X-60.3464 Y0.7313 
G01 X-60.4388 Y0.8697 
G01 X-60.5025 Y1.0235 
G01 X-60.5350 Y1.1868 
G01 X-60.5350 Y11.6010 
G01 X-60.7751 Y11.6010 
G01 X-60.9617 Y11.6306 
G01 X-61.1415 Y11.6890 
G01 X-61.3098 Y11.7748 
G01 X-61.4627 Y11.8858 
G01 X-61.5964 Y12.0195 
G01 X-61.7074 Y12.1723 
G01 X-61.7932 Y12.3407 
G01 X-61.8516 Y12.5205 
G01 X-61.8812 Y12.7071 
G01 X-61.8812 Y12.8961 
G01 X-61.8516 Y13.0827 
G01 X-61.7932 Y13.2625 
G01 X-61.7074 Y13.4308 
G01 X-61.5964 Y13.5837 
G01 X-61.4627 Y13.7174 
G01 X-61.3098 Y13.8284 
G01 X-61.1415 Y13.9142 
G01 X-60.9617 Y13.9726 
G01 X-60.7751 Y14.0022 
G01 X-58.6049 Y14.0022 
G01 X-58.4183 Y13.9726 
G01 X-58.2385 Y13.9142 
G01 X-58.0701 Y13.8284 
G01 X-57.9173 Y13.7174 
G01 X-57.7836 Y13.5837 
G01 X-57.6726 Y13.4308 
G01 X-57.5868 Y13.2625 
G01 X-57.5284 Y13.0827 
G01 X-57.4988 Y12.8961 
G01 X-57.4988 Y12.7071 
G01 X-57.5284 Y12.5205 
G01 X-57.5868 Y12.3407 
G01 X-57.6726 Y12.1723 
G01 X-57.7836 Y12.0195 
G01 X-57.9173 Y11.8858 
G01 X-58.0701 Y11.7748 
G01 X-58.2385 Y11.6890 
G01 X-58.4183 Y11.6306 
G01 X-58.6049 Y11.6010 
G01 X-58.8450 Y11.6010 
G01 X-58.8450 Y2.1150 
G01 X-23.7050 Y2.1150 
G01 X-23.7050 Y14.3950 
G01 X-30.9154 Y14.3950 
G01 X-31.0109 Y14.3760 
G01 X-32.4891 Y14.3760 
G01 X-32.6560 Y14.4092 
G01 X-32.8133 Y14.4743 
G01 X-32.9548 Y14.5689 
G01 X-33.0751 Y14.6892 
G01 X-33.1697 Y14.8307 
G01 X-33.2348 Y14.9880 
G01 X-33.2680 Y15.1549 
G01 X-33.2680 Y15.3251 
G01 X-33.2348 Y15.4920 
G01 X-33.1697 Y15.6493 
G01 X-33.0751 Y15.7908 
G01 X-32.9548 Y15.9111 
G01 X-32.8133 Y16.0057 
G01 X-32.6560 Y16.0708 
G01 X-32.4891 Y16.1040 
G01 X-31.0109 Y16.1040 
G01 X-30.9154 Y16.0850 
G01 X-23.7050 Y16.0850 
G01 X-23.7050 Y20.4032 
G01 X-23.6725 Y20.5665 
G01 X-23.6088 Y20.7203 
G01 X-23.5164 Y20.8587 
G01 X-23.3987 Y20.9764 
G01 X-23.2603 Y21.0688 
G01 X-23.1065 Y21.1325 
G01 X-22.9432 Y21.1650 
G01 X-19.0045 Y21.1650 
G01 X-18.9906 Y21.1743 
G01 X-18.8152 Y21.2469 
G01 X-18.6289 Y21.2840 
G01 X-16.9310 Y21.2840 
G01 X-16.7448 Y21.2469 
G01 X-16.5694 Y21.1743 
G01 X-16.4115 Y21.0688 
G01 X-16.2772 Y20.9345 
G01 X-16.1717 Y20.7766 
G01 X-16.0990 Y20.6012 
G01 X-16.0620 Y20.4149 
G01 X-16.0620 Y20.2250 
G01 X-16.0990 Y20.0388 
G01 X-16.1717 Y19.8634 
G01 X-16.2772 Y19.7055 
G01 X-16.4115 Y19.5712 
G01 X-16.5694 Y19.4657 
G01 X-16.7448 Y19.3930 
G01 X-16.9310 Y19.3560 
G01 X-18.6289 Y19.3560 
G01 X-18.8152 Y19.3930 
G01 X-18.9906 Y19.4657 
G01 X-19.0045 Y19.4750 
G01 X-22.0150 Y19.4750 
G01 X-22.0150 Y14.8150 
G01 X-11.0050 Y14.8150 
G01 X-11.0050 Y26.7532 
G01 X-10.9725 Y26.9165 
G01 X-10.9088 Y27.0703 
G01 X-10.8164 Y27.2087 
G01 X-10.6987 Y27.3264 
G01 X-10.5603 Y27.4188 
G01 X-10.4065 Y27.4825 
G01 X-10.2432 Y27.5150 
G01 X-3.3850 Y27.5150 
G01 X-3.3850 Y34.3355 
G01 X-3.3943 Y34.3494 
G01 X-3.4670 Y34.5248 
G01 X-3.5040 Y34.7111 
G01 X-3.5040 Y36.4089 
G01 X-3.4670 Y36.5952 
G01 X-3.3943 Y36.7706 
G01 X-3.3850 Y36.7845 
G01 X-3.3850 Y42.3350 
G01 X-15.3232 Y42.3350 
G01 X-15.4865 Y42.3675 
G01 X-15.6403 Y42.4312 
G01 X-15.7787 Y42.5236 
G01 X-15.8964 Y42.6413 
G01 X-15.9888 Y42.7797 
G01 X-16.0525 Y42.9335 
G01 X-16.0850 Y43.0968 
G01 X-16.0850 Y45.0739 
G01 X-16.0983 Y45.0836 
G01 X-16.2320 Y45.2173 
G01 X-16.3430 Y45.3701 
G01 X-16.4288 Y45.5385 
G01 X-16.4872 Y45.7183 
G01 X-16.5168 Y45.9049 
G01 X-16.5168 Y48.0751 
G01 X-16.4872 Y48.2617 
G01 X-16.4288 Y48.4415 
G01 X-16.3430 Y48.6099 
G01 X-16.2320 Y48.7627 
G01 X-16.0983 Y48.8964 
G01 X-16.0850 Y48.9061 
G01 X-16.0850 Y56.3050 
G01 X-36.8531 Y56.3050 
G01 X-36.8776 Y56.2886 
G01 X-37.0545 Y56.2154 
G01 X-37.2423 Y56.1780 
G01 X-38.9577 Y56.1780 
G01 X-39.1455 Y56.2154 
G01 X-39.3224 Y56.2886 
G01 X-39.4816 Y56.3950 
G01 X-39.6170 Y56.5304 
G01 X-39.7234 Y56.6896 
G01 X-39.7966 Y56.8665 
G01 X-39.8340 Y57.0543 
G01 X-39.8340 Y57.2457 
G01 X-39.7966 Y57.4335 
G01 X-39.7234 Y57.6104 
G01 X-39.6170 Y57.7696 
G01 X-39.4816 Y57.9050 
G01 X-39.3224 Y58.0114 
G01 X-39.1455 Y58.0846 
G01 X-38.9577 Y58.1220 
G01 X-37.2423 Y58.1220 
G01 X-37.0545 Y58.0846 
G01 X-36.8776 Y58.0114 
G01 X-36.8531 Y57.9950 
G01 X-16.0850 Y57.9950 
G01 X-16.0850 Y62.0200 
G01 X-16.5518 Y62.0200 
G01 X-16.6290 Y62.0520 
G01 X-16.6880 Y62.1110 
G01 X-16.7200 Y62.1882 
G01 X-16.7200 Y64.8118 
G01 X-16.6880 Y64.8890 
G01 X-16.6290 Y64.9480 
G01 X-16.5518 Y64.9800 
G01 X-13.9282 Y64.9800 
G01 X-13.8510 Y64.9480 
G01 X-13.7920 Y64.8890 
G01 X-13.7600 Y64.8118 
G01 X-13.7600 Y62.1882 
G01 X-13.7920 Y62.1110 
G01 X-13.8510 Y62.0520 
G01 X-13.9282 Y62.0200 
G01 X-14.3950 Y62.0200 
G01 X-14.3950 Y48.7553 
G01 X-14.2894 Y48.6099 
G01 X-14.2036 Y48.4415 
G01 X-14.1452 Y48.2617 
G01 X-14.1156 Y48.0751 
G01 X-14.1156 Y45.9049 
G01 X-14.1452 Y45.7183 
G01 X-14.2036 Y45.5385 
G01 X-14.2894 Y45.3701 
G01 X-14.3950 Y45.2247 
G01 X-14.3950 Y44.0250 
G01 X-2.4568 Y44.0250 
G01 X-2.2935 Y43.9925 
G01 X-2.1397 Y43.9288 
G01 X-2.0013 Y43.8364 
G01 X-1.8836 Y43.7187 
G01 X-1.7912 Y43.5803 
G01 X-1.7275 Y43.4265 
G01 X-1.6950 Y43.2632 
G01 X-1.6950 Y36.7845 
G01 X-1.6857 Y36.7706 
G01 X-1.6130 Y36.5952 
G01 X-1.5760 Y36.4089 
G01 X-1.5760 Y34.7111 
G01 X-1.6130 Y34.5248 
G01 X-1.6857 Y34.3494 
G01 X-1.6950 Y34.3355 
G01 X-1.6950 Y26.5868 
G01 X-1.7275 Y26.4235 
G01 X-1.7912 Y26.2697 
G01 X-1.8836 Y26.1313 
G01 X-2.0013 Y26.0136 
G01 X-2.1397 Y25.9212 
G01 X-2.2935 Y25.8575 
G01 X-2.4568 Y25.8250 
G01 X-9.3150 Y25.8250 
G01 X-9.3150 Y13.8868 
G01 X-9.3475 Y13.7235 
G01 X-9.4112 Y13.5697 
G01 X-9.5036 Y13.4313 
G00 Z2.5400 
G00 X-12.0436 Y17.2413 
G01 Z-0.2500 F254.00 
G01 X-12.1613 Y17.1236 F508.00 
G01 X-12.2997 Y17.0312 
G01 X-12.4535 Y16.9675 
G01 X-12.6168 Y16.9350 
G01 X-16.5555 Y16.9350 
G01 X-16.5694 Y16.9257 
G01 X-16.7448 Y16.8530 
G01 X-16.9310 Y16.8160 
G01 X-18.6289 Y16.8160 
G01 X-18.8152 Y16.8530 
G01 X-18.9906 Y16.9257 
G01 X-19.1485 Y17.0312 
G01 X-19.2828 Y17.1655 
G01 X-19.3883 Y17.3234 
G01 X-19.4610 Y17.4988 
G01 X-19.4980 Y17.6851 
G01 X-19.4980 Y17.8749 
G01 X-19.4610 Y18.0612 
G01 X-19.3883 Y18.2366 
G01 X-19.2828 Y18.3945 
G01 X-19.1485 Y18.5288 
G01 X-18.9906 Y18.6343 
G01 X-18.8152 Y18.7069 
G01 X-18.6289 Y18.7440 
G01 X-16.9310 Y18.7440 
G01 X-16.7448 Y18.7069 
G01 X-16.5694 Y18.6343 
G01 X-16.5555 Y18.6250 
G01 X-13.5450 Y18.6250 
G01 X-13.5450 Y29.2932 
G01 X-13.5125 Y29.4565 
G01 X-13.4488 Y29.6103 
G01 X-13.3564 Y29.7487 
G01 X-13.2387 Y29.8664 
G01 X-13.1003 Y29.9588 
G01 X-12.9465 Y30.0225 
G01 X-12.7832 Y30.0550 
G01 X-5.9250 Y30.0550 
G01 X-5.9250 Y34.3355 
G01 X-5.9343 Y34.3494 
G01 X-6.0069 Y34.5248 
G01 X-6.0440 Y34.7111 
G01 X-6.0440 Y36.4089 
G01 X-6.0069 Y36.5952 
G01 X-5.9343 Y36.7706 
G01 X-5.9250 Y36.7845 
G01 X-5.9250 Y38.5250 
G01 X-20.4032 Y38.5250 
G01 X-20.5665 Y38.5575 
G01 X-20.7203 Y38.6212 
G01 X-20.8587 Y38.7136 
G01 X-20.9764 Y38.8313 
G01 X-21.0688 Y38.9697 
G01 X-21.1325 Y39.1235 
G01 X-21.1650 Y39.2868 
G01 X-21.1650 Y45.1465 
G01 X-21.2358 Y45.2173 
G01 X-21.3468 Y45.3701 
G01 X-21.4326 Y45.5385 
G01 X-21.4910 Y45.7183 
G01 X-21.5206 Y45.9049 
G01 X-21.5206 Y48.0751 
G01 X-21.4910 Y48.2617 
G01 X-21.4326 Y48.4415 
G01 X-21.3468 Y48.6099 
G01 X-21.2358 Y48.7627 
G01 X-21.1650 Y48.8335 
G01 X-21.1650 Y51.2250 
G01 X-29.6350 Y51.2250 
G01 X-29.6350 Y49.4468 
G01 X-29.6675 Y49.2835 
G01 X-29.7312 Y49.1297 
G01 X-29.8236 Y48.9913 
G01 X-29.9413 Y48.8736 
G01 X-30.0797 Y48.7812 
G01 X-30.2335 Y48.7175 
G01 X-30.3968 Y48.6850 
G01 X-40.2316 Y48.6850 
G01 X-40.2397 Y48.6796 
G01 X-40.3935 Y48.6159 
G01 X-40.5568 Y48.5834 
G01 X-57.8465 Y48.5834 
G01 X-57.9173 Y48.5126 
G01 X-58.0701 Y48.4016 
G01 X-58.2385 Y48.3158 
G01 X-58.4183 Y48.2574 
G01 X-58.6049 Y48.2278 
G01 X-60.7751 Y48.2278 
G01 X-60.9617 Y48.2574 
G01 X-61.1415 Y48.3158 
G01 X-61.3098 Y48.4016 
G01 X-61.4627 Y48.5126 
G01 X-61.5335 Y48.5834 
G01 X-62.6550 Y48.5834 
G01 X-62.6550 Y18.6363 
G01 X-61.5583 Y18.6510 
G01 X-61.4627 Y18.7466 
G01 X-61.3098 Y18.8576 
G01 X-61.1415 Y18.9434 
G01 X-60.9617 Y19.0018 
G01 X-60.7751 Y19.0314 
G01 X-58.6049 Y19.0314 
G01 X-58.4183 Y19.0018 
G01 X-58.2385 Y18.9434 
G01 X-58.0701 Y18.8576 
G01 X-57.9173 Y18.7466 
G01 X-57.7957 Y18.6250 
G01 X-54.5268 Y18.6250 
G01 X-54.3635 Y18.5925 
G01 X-54.2097 Y18.5288 
G01 X-54.0713 Y18.4364 
G01 X-53.9536 Y18.3187 
G01 X-53.8612 Y18.1803 
G01 X-53.7975 Y18.0265 
G01 X-53.7650 Y17.8632 
G01 X-53.7650 Y4.6550 
G01 X-28.7850 Y4.6550 
G01 X-28.7850 Y9.3150 
G01 X-30.9154 Y9.3150 
G01 X-31.0109 Y9.2960 
G01 X-32.4891 Y9.2960 
G01 X-32.6560 Y9.3292 
G01 X-32.8133 Y9.3943 
G01 X-32.9548 Y9.4889 
G01 X-33.0751 Y9.6092 
G01 X-33.1697 Y9.7507 
G01 X-33.2348 Y9.9080 
G01 X-33.2680 Y10.0749 
G01 X-33.2680 Y10.2451 
G01 X-33.2348 Y10.4120 
G01 X-33.1697 Y10.5693 
G01 X-33.0751 Y10.7108 
G01 X-32.9548 Y10.8311 
G01 X-32.8133 Y10.9257 
G01 X-32.6560 Y10.9908 
G01 X-32.4891 Y11.0240 
G01 X-31.0109 Y11.0240 
G01 X-30.9154 Y11.0050 
G01 X-27.8568 Y11.0050 
G01 X-27.6935 Y10.9725 
G01 X-27.5397 Y10.9088 
G01 X-27.4013 Y10.8164 
G01 X-27.2836 Y10.6987 
G01 X-27.1912 Y10.5603 
G01 X-27.1275 Y10.4065 
G01 X-27.0950 Y10.2432 
G01 X-27.0950 Y3.7268 
G01 X-27.1275 Y3.5635 
G01 X-27.1912 Y3.4097 
G01 X-27.2836 Y3.2713 
G01 X-27.4013 Y3.1536 
G01 X-27.5397 Y3.0612 
G01 X-27.6935 Y2.9975 
G01 X-27.8568 Y2.9650 
G01 X-54.6932 Y2.9650 
G01 X-54.8565 Y2.9975 
G01 X-55.0103 Y3.0612 
G01 X-55.1487 Y3.1536 
G01 X-55.2664 Y3.2713 
G01 X-55.3588 Y3.4097 
G01 X-55.4225 Y3.5635 
G01 X-55.4550 Y3.7268 
G01 X-55.4550 Y16.9350 
G01 X-57.8973 Y16.9350 
G01 X-57.9173 Y16.9150 
G01 X-58.0701 Y16.8040 
G01 X-58.2385 Y16.7182 
G01 X-58.4183 Y16.6598 
G01 X-58.6049 Y16.6302 
G01 X-60.7751 Y16.6302 
G01 X-60.9617 Y16.6598 
G01 X-61.1415 Y16.7182 
G01 X-61.3098 Y16.8040 
G01 X-61.4627 Y16.9150 
G01 X-61.4827 Y16.9350 
G01 X-63.4945 Y16.9350 
G01 X-63.5720 Y16.9340 
G01 X-63.5775 Y16.9350 
G01 X-63.5832 Y16.9350 
G01 X-63.6594 Y16.9502 
G01 X-63.7356 Y16.9643 
G01 X-63.7409 Y16.9664 
G01 X-63.7465 Y16.9675 
G01 X-63.8182 Y16.9972 
G01 X-63.8902 Y17.0259 
G01 X-63.8950 Y17.0290 
G01 X-63.9003 Y17.0312 
G01 X-63.9648 Y17.0743 
G01 X-64.0299 Y17.1165 
G01 X-64.0339 Y17.1205 
G01 X-64.0387 Y17.1236 
G01 X-64.0936 Y17.1786 
G01 X-64.1491 Y17.2326 
G01 X-64.1523 Y17.2373 
G01 X-64.1564 Y17.2413 
G01 X-64.1995 Y17.3059 
G01 X-64.2434 Y17.3698 
G01 X-64.2457 Y17.3750 
G01 X-64.2488 Y17.3797 
G01 X-64.2785 Y17.4514 
G01 X-64.3092 Y17.5227 
G01 X-64.3103 Y17.5283 
G01 X-64.3125 Y17.5335 
G01 X-64.3277 Y17.6097 
G01 X-64.3438 Y17.6855 
G01 X-64.3439 Y17.6912 
G01 X-64.3450 Y17.6968 
G01 X-64.3450 Y17.7744 
G01 X-64.3460 Y17.8520 
G01 X-64.3450 Y17.8575 
G01 X-64.3450 Y55.8772 
G01 X-64.3455 Y55.9576 
G01 X-64.3450 Y55.9604 
G01 X-64.3450 Y55.9632 
G01 X-64.3293 Y56.0420 
G01 X-64.3141 Y56.1211 
G01 X-64.3131 Y56.1237 
G01 X-64.3125 Y56.1265 
G01 X-64.2818 Y56.2007 
G01 X-64.2515 Y56.2753 
G01 X-64.2488 Y56.2803 
G01 X-64.2042 Y56.3471 
G01 X-64.1599 Y56.4143 
G01 X-64.1564 Y56.4187 
G01 X-64.0995 Y56.4755 
G01 X-64.0430 Y56.5327 
G01 X-64.0387 Y56.5364 
G01 X-63.9719 Y56.5810 
G01 X-63.9052 Y56.6261 
G01 X-63.9026 Y56.6272 
G01 X-63.8260 Y56.6596 
G01 X-63.7519 Y56.6909 
G01 X-63.7491 Y56.6914 
G01 X-63.7465 Y56.6925 
G01 X-63.6674 Y56.7082 
G01 X-63.5889 Y56.7244 
G01 X-63.5860 Y56.7244 
G01 X-63.5832 Y56.7250 
G01 X-63.5026 Y56.7250 
G01 X-61.5459 Y56.7380 
G01 X-61.4627 Y56.8212 
G01 X-61.3098 Y56.9322 
G01 X-61.1415 Y57.0180 
G01 X-60.9617 Y57.0764 
G01 X-60.7751 Y57.1060 
G01 X-58.6049 Y57.1060 
G01 X-58.4183 Y57.0764 
G01 X-58.2385 Y57.0180 
G01 X-58.0701 Y56.9322 
G01 X-57.9173 Y56.8212 
G01 X-57.7836 Y56.6875 
G01 X-57.6726 Y56.5346 
G01 X-57.5868 Y56.3663 
G01 X-57.5284 Y56.1865 
G01 X-57.4988 Y55.9999 
G01 X-57.4988 Y55.8109 
G01 X-57.5284 Y55.6243 
G01 X-57.5868 Y55.4445 
G01 X-57.6726 Y55.2761 
G01 X-57.7836 Y55.1233 
G01 X-57.9173 Y54.9896 
G01 X-58.0701 Y54.8786 
G01 X-58.2385 Y54.7928 
G01 X-58.4183 Y54.7344 
G01 X-58.6049 Y54.7048 
G01 X-60.7751 Y54.7048 
G01 X-60.9617 Y54.7344 
G01 X-61.1415 Y54.7928 
G01 X-61.3098 Y54.8786 
G01 X-61.4627 Y54.9896 
G01 X-61.5213 Y55.0482 
G01 X-62.6550 Y55.0406 
G01 X-62.6550 Y50.2734 
G01 X-61.5335 Y50.2734 
G01 X-61.4627 Y50.3442 
G01 X-61.3098 Y50.4552 
G01 X-61.1415 Y50.5410 
G01 X-60.9617 Y50.5994 
G01 X-60.7751 Y50.6290 
G01 X-58.6049 Y50.6290 
G01 X-58.4183 Y50.5994 
G01 X-58.2385 Y50.5410 
G01 X-58.0701 Y50.4552 
G01 X-57.9173 Y50.3442 
G01 X-57.8465 Y50.2734 
G01 X-45.2950 Y50.2734 
G01 X-45.2950 Y59.7732 
G01 X-45.2625 Y59.9365 
G01 X-45.1988 Y60.0903 
G01 X-45.1064 Y60.2287 
G01 X-44.9887 Y60.3464 
G01 X-44.8503 Y60.4388 
G01 X-44.6965 Y60.5025 
G01 X-44.5332 Y60.5350 
G01 X-39.3469 Y60.5350 
G01 X-39.3224 Y60.5514 
G01 X-39.1455 Y60.6246 
G01 X-38.9577 Y60.6620 
G01 X-37.2423 Y60.6620 
G01 X-37.0545 Y60.6246 
G01 X-36.8776 Y60.5514 
G01 X-36.8531 Y60.5350 
G01 X-21.1650 Y60.5350 
G01 X-21.1650 Y62.0200 
G01 X-21.6318 Y62.0200 
G01 X-21.7090 Y62.0520 
G01 X-21.7680 Y62.1110 
G01 X-21.8000 Y62.1882 
G01 X-21.8000 Y64.8118 
G01 X-21.7680 Y64.8890 
G01 X-21.7090 Y64.9480 
G01 X-21.6318 Y64.9800 
G01 X-19.0082 Y64.9800 
G01 X-18.9310 Y64.9480 
G01 X-18.8720 Y64.8890 
G01 X-18.8400 Y64.8118 
G01 X-18.8400 Y62.1882 
G01 X-18.8720 Y62.1110 
G01 X-18.9310 Y62.0520 
G01 X-19.0082 Y62.0200 
G01 X-19.4750 Y62.0200 
G01 X-19.4750 Y59.7732 
G01 X-19.4750 Y59.6068 
G01 X-19.5075 Y59.4435 
G01 X-19.5712 Y59.2897 
G01 X-19.6636 Y59.1513 
G01 X-19.7813 Y59.0336 
G01 X-19.9197 Y58.9412 
G01 X-20.0735 Y58.8775 
G01 X-20.2368 Y58.8450 
G01 X-36.8531 Y58.8450 
G01 X-36.8776 Y58.8286 
G01 X-37.0545 Y58.7554 
G01 X-37.2423 Y58.7180 
G01 X-38.9577 Y58.7180 
G01 X-39.1455 Y58.7554 
G01 X-39.3224 Y58.8286 
G01 X-39.3469 Y58.8450 
G01 X-43.6050 Y58.8450 
G01 X-43.6050 Y50.2734 
G01 X-41.0484 Y50.2734 
G01 X-41.0403 Y50.2788 
G01 X-40.8865 Y50.3425 
G01 X-40.7232 Y50.3750 
G01 X-31.3250 Y50.3750 
G01 X-31.3250 Y52.1532 
G01 X-31.2925 Y52.3165 
G01 X-31.2288 Y52.4703 
G01 X-31.1364 Y52.6087 
G01 X-31.0187 Y52.7264 
G01 X-30.8803 Y52.8188 
G01 X-30.7265 Y52.8825 
G01 X-30.5632 Y52.9150 
G01 X-20.2368 Y52.9150 
G01 X-20.0735 Y52.8825 
G01 X-19.9197 Y52.8188 
G01 X-19.7813 Y52.7264 
G01 X-19.6636 Y52.6087 
G01 X-19.5712 Y52.4703 
G01 X-19.5075 Y52.3165 
G01 X-19.4750 Y52.1532 
G01 X-19.4750 Y48.8335 
G01 X-19.4042 Y48.7627 
G01 X-19.2932 Y48.6099 
G01 X-19.2074 Y48.4415 
G01 X-19.1490 Y48.2617 
G01 X-19.1194 Y48.0751 
G01 X-19.1194 Y45.9049 
G01 X-19.1490 Y45.7183 
G01 X-19.2074 Y45.5385 
G01 X-19.2932 Y45.3701 
G01 X-19.4042 Y45.2173 
G01 X-19.4750 Y45.1465 
G01 X-19.4750 Y40.2150 
G01 X-4.9968 Y40.2150 
G01 X-4.8335 Y40.1825 
G01 X-4.6797 Y40.1188 
G01 X-4.5413 Y40.0264 
G01 X-4.4236 Y39.9087 
G01 X-4.3312 Y39.7703 
G01 X-4.2675 Y39.6165 
G01 X-4.2350 Y39.4532 
G01 X-4.2350 Y36.7845 
G01 X-4.2257 Y36.7706 
G01 X-4.1530 Y36.5952 
G01 X-4.1160 Y36.4089 
G01 X-4.1160 Y34.7111 
G01 X-4.1530 Y34.5248 
G01 X-4.2257 Y34.3494 
G01 X-4.2350 Y34.3355 
G01 X-4.2350 Y29.1268 
G01 X-4.2675 Y28.9635 
G01 X-4.3312 Y28.8097 
G01 X-4.4236 Y28.6713 
G01 X-4.5413 Y28.5536 
G01 X-4.6797 Y28.4612 
G01 X-4.8335 Y28.3975 
G01 X-4.9968 Y28.3650 
G01 X-11.8550 Y28.3650 
G01 X-11.8550 Y17.6968 
G01 X-11.8875 Y17.5335 
G01 X-11.9512 Y17.3797 
G01 X-12.0436 Y17.2413 
G00 Z2.5400 
G00 X-16.2772 Y22.2455 
G01 Z-0.2500 F254.00 
G01 X-16.4115 Y22.1112 F508.00 
G01 X-16.5694 Y22.0057 
G01 X-16.7448 Y21.9330 
G01 X-16.9310 Y21.8960 
G01 X-18.6289 Y21.8960 
G01 X-18.8152 Y21.9330 
G01 X-18.9906 Y22.0057 
G01 X-19.0045 Y22.0150 
G01 X-30.9154 Y22.0150 
G01 X-31.0109 Y21.9960 
G01 X-32.4891 Y21.9960 
G01 X-32.6560 Y22.0292 
G01 X-32.8133 Y22.0943 
G01 X-32.9548 Y22.1889 
G01 X-33.0751 Y22.3092 
G01 X-33.1697 Y22.4507 
G01 X-33.2348 Y22.6080 
G01 X-33.2680 Y22.7749 
G01 X-33.2680 Y22.9451 
G01 X-33.2348 Y23.1120 
G01 X-33.1697 Y23.2693 
G01 X-33.0751 Y23.4108 
G01 X-32.9548 Y23.5311 
G01 X-32.8133 Y23.6257 
G01 X-32.6560 Y23.6908 
G01 X-32.4891 Y23.7240 
G01 X-31.0109 Y23.7240 
G01 X-30.9154 Y23.7050 
G01 X-19.0045 Y23.7050 
G01 X-18.9906 Y23.7143 
G01 X-18.8152 Y23.7870 
G01 X-18.6289 Y23.8240 
G01 X-16.9310 Y23.8240 
G01 X-16.7448 Y23.7870 
G01 X-16.5694 Y23.7143 
G01 X-16.4115 Y23.6088 
G01 X-16.2772 Y23.4745 
G01 X-16.1717 Y23.3166 
G01 X-16.0990 Y23.1412 
G01 X-16.0620 Y22.9549 
G01 X-16.0620 Y22.7650 
G01 X-16.0990 Y22.5788 
G01 X-16.1717 Y22.4034 
G01 X-16.2772 Y22.2455 
G00 Z2.5400 
G00 X-16.2772 Y24.7855 
G01 Z-0.2500 F254.00 
G01 X-16.4115 Y24.6512 F508.00 
G01 X-16.5694 Y24.5457 
G01 X-16.7448 Y24.4730 
G01 X-16.9310 Y24.4360 
G01 X-18.6289 Y24.4360 
G01 X-18.8152 Y24.4730 
G01 X-18.9906 Y24.5457 
G01 X-19.0045 Y24.5550 
G01 X-30.9154 Y24.5550 
G01 X-31.0109 Y24.5360 
G01 X-32.4891 Y24.5360 
G01 X-32.6560 Y24.5692 
G01 X-32.8133 Y24.6343 
G01 X-32.9548 Y24.7289 
G01 X-33.0751 Y24.8492 
G01 X-33.1697 Y24.9907 
G01 X-33.2348 Y25.1480 
G01 X-33.2680 Y25.3149 
G01 X-33.2680 Y25.4851 
G01 X-33.2348 Y25.6520 
G01 X-33.1697 Y25.8093 
G01 X-33.0751 Y25.9508 
G01 X-32.9548 Y26.0711 
G01 X-32.8133 Y26.1657 
G01 X-32.6560 Y26.2308 
G01 X-32.4891 Y26.2640 
G01 X-31.0109 Y26.2640 
G01 X-30.9154 Y26.2450 
G01 X-19.0045 Y26.2450 
G01 X-18.9906 Y26.2543 
G01 X-18.8152 Y26.3270 
G01 X-18.6289 Y26.3640 
G01 X-16.9310 Y26.3640 
G01 X-16.7448 Y26.3270 
G01 X-16.5694 Y26.2543 
G01 X-16.4115 Y26.1488 
G01 X-16.2772 Y26.0145 
G01 X-16.1717 Y25.8566 
G01 X-16.0990 Y25.6812 
G01 X-16.0620 Y25.4949 
G01 X-16.0620 Y25.3051 
G01 X-16.0990 Y25.1188 
G01 X-16.1717 Y24.9434 
G01 X-16.2772 Y24.7855 
G00 Z2.5400 
G00 X-10.7745 Y34.0572 
G01 Z-0.2500 F254.00 
G01 X-10.9088 Y34.1915 F508.00 
G01 X-11.0143 Y34.3494 
G01 X-11.0869 Y34.5248 
G01 X-11.1240 Y34.7111 
G01 X-11.1240 Y34.7150 
G01 X-30.9154 Y34.7150 
G01 X-31.0109 Y34.6960 
G01 X-32.4891 Y34.6960 
G01 X-32.6560 Y34.7292 
G01 X-32.8133 Y34.7943 
G01 X-32.9548 Y34.8889 
G01 X-33.0751 Y35.0092 
G01 X-33.1697 Y35.1507 
G01 X-33.2348 Y35.3080 
G01 X-33.2680 Y35.4749 
G01 X-33.2680 Y35.6451 
G01 X-33.2348 Y35.8120 
G01 X-33.1697 Y35.9693 
G01 X-33.0751 Y36.1108 
G01 X-32.9548 Y36.2311 
G01 X-32.8133 Y36.3257 
G01 X-32.6560 Y36.3908 
G01 X-32.4891 Y36.4240 
G01 X-31.0109 Y36.4240 
G01 X-30.9154 Y36.4050 
G01 X-11.1240 Y36.4050 
G01 X-11.1240 Y36.4089 
G01 X-11.0869 Y36.5952 
G01 X-11.0143 Y36.7706 
G01 X-10.9088 Y36.9285 
G01 X-10.7745 Y37.0628 
G01 X-10.6166 Y37.1683 
G01 X-10.4412 Y37.2409 
G01 X-10.2549 Y37.2780 
G01 X-10.0650 Y37.2780 
G01 X-9.8788 Y37.2409 
G01 X-9.7034 Y37.1683 
G01 X-9.5455 Y37.0628 
G01 X-9.4112 Y36.9285 
G01 X-9.3057 Y36.7706 
G01 X-9.2330 Y36.5952 
G01 X-9.1960 Y36.4089 
G01 X-9.1960 Y34.7111 
G01 X-9.2330 Y34.5248 
G01 X-9.3057 Y34.3494 
G01 X-9.4112 Y34.1915 
G01 X-9.5455 Y34.0572 
G01 X-9.7034 Y33.9517 
G01 X-9.8788 Y33.8790 
G01 X-10.0650 Y33.8420 
G01 X-10.2549 Y33.8420 
G01 X-10.4412 Y33.8790 
G01 X-10.6166 Y33.9517 
G01 X-10.7745 Y34.0572 
G00 Z2.5400 
G00 X-8.2345 Y34.0572 
G01 Z-0.2500 F254.00 
G01 X-8.3688 Y34.1915 F508.00 
G01 X-8.4743 Y34.3494 
G01 X-8.5470 Y34.5248 
G01 X-8.5840 Y34.7111 
G01 X-8.5840 Y36.4089 
G01 X-8.5470 Y36.5952 
G01 X-8.4743 Y36.7706 
G01 X-8.3688 Y36.9285 
G01 X-8.2345 Y37.0628 
G01 X-8.0766 Y37.1683 
G01 X-7.9012 Y37.2409 
G01 X-7.7149 Y37.2780 
G01 X-7.5251 Y37.2780 
G01 X-7.3388 Y37.2409 
G01 X-7.1634 Y37.1683 
G01 X-7.0055 Y37.0628 
G01 X-6.8712 Y36.9285 
G01 X-6.7657 Y36.7706 
G01 X-6.6930 Y36.5952 
G01 X-6.6560 Y36.4089 
G01 X-6.6560 Y34.7111 
G01 X-6.6930 Y34.5248 
G01 X-6.7657 Y34.3494 
G01 X-6.8712 Y34.1915 
G01 X-7.0055 Y34.0572 
G01 X-7.1634 Y33.9517 
G01 X-7.3388 Y33.8790 
G01 X-7.5251 Y33.8420 
G01 X-7.7149 Y33.8420 
G01 X-7.9012 Y33.8790 
G01 X-8.0766 Y33.9517 
G01 X-8.2345 Y34.0572 
G00 Z2.5400 
G00 X-30.5452 Y33.6911 
G01 Z-0.2500 F254.00 
G01 X-30.4249 Y33.5708 F508.00 
G01 X-30.3303 Y33.4293 
G01 X-30.2652 Y33.2720 
G01 X-30.2320 Y33.1051 
G01 X-30.2320 Y32.9349 
G01 X-30.2652 Y32.7680 
G01 X-30.3303 Y32.6107 
G01 X-30.4249 Y32.4692 
G01 X-30.5452 Y32.3489 
G01 X-30.6867 Y32.2543 
G01 X-30.8440 Y32.1892 
G01 X-31.0109 Y32.1560 
G01 X-32.4891 Y32.1560 
G01 X-32.6560 Y32.1892 
G01 X-32.8133 Y32.2543 
G01 X-32.9548 Y32.3489 
G01 X-33.0751 Y32.4692 
G01 X-33.1697 Y32.6107 
G01 X-33.2348 Y32.7680 
G01 X-33.2680 Y32.9349 
G01 X-33.2680 Y33.1051 
G01 X-33.2348 Y33.2720 
G01 X-33.1697 Y33.4293 
G01 X-33.0751 Y33.5708 
G01 X-32.9548 Y33.6911 
G01 X-32.8133 Y33.7857 
G01 X-32.6560 Y33.8508 
G01 X-32.4891 Y33.8840 
G01 X-31.0109 Y33.8840 
G01 X-30.8440 Y33.8508 
G01 X-30.6867 Y33.7857 
G01 X-30.5452 Y33.6911 
G00 Z2.5400 
G00 X-30.5452 Y31.1511 
G01 Z-0.2500 F254.00 
G01 X-30.4249 Y31.0308 F508.00 
G01 X-30.3303 Y30.8893 
G01 X-30.2652 Y30.7320 
G01 X-30.2320 Y30.5651 
G01 X-30.2320 Y30.3949 
G01 X-30.2652 Y30.2280 
G01 X-30.3303 Y30.0707 
G01 X-30.4249 Y29.9292 
G01 X-30.5452 Y29.8089 
G01 X-30.6867 Y29.7143 
G01 X-30.8440 Y29.6492 
G01 X-31.0109 Y29.6160 
G01 X-32.4891 Y29.6160 
G01 X-32.6560 Y29.6492 
G01 X-32.8133 Y29.7143 
G01 X-32.9548 Y29.8089 
G01 X-33.0751 Y29.9292 
G01 X-33.1697 Y30.0707 
G01 X-33.2348 Y30.2280 
G01 X-33.2680 Y30.3949 
G01 X-33.2680 Y30.5651 
G01 X-33.2348 Y30.7320 
G01 X-33.1697 Y30.8893 
G01 X-33.0751 Y31.0308 
G01 X-32.9548 Y31.1511 
G01 X-32.8133 Y31.2457 
G01 X-32.6560 Y31.3108 
G01 X-32.4891 Y31.3440 
G01 X-31.0109 Y31.3440 
G01 X-30.8440 Y31.3108 
G01 X-30.6867 Y31.2457 
G01 X-30.5452 Y31.1511 
G00 Z2.5400 
G00 X-30.5452 Y28.6111 
G01 Z-0.2500 F254.00 
G01 X-30.4249 Y28.4908 F508.00 
G01 X-30.3303 Y28.3493 
G01 X-30.2652 Y28.1920 
G01 X-30.2320 Y28.0251 
G01 X-30.2320 Y27.8549 
G01 X-30.2652 Y27.6880 
G01 X-30.3303 Y27.5307 
G01 X-30.4249 Y27.3892 
G01 X-30.5452 Y27.2689 
G01 X-30.6867 Y27.1743 
G01 X-30.8440 Y27.1092 
G01 X-31.0109 Y27.0760 
G01 X-32.4891 Y27.0760 
G01 X-32.6560 Y27.1092 
G01 X-32.8133 Y27.1743 
G01 X-32.9548 Y27.2689 
G01 X-33.0751 Y27.3892 
G01 X-33.1697 Y27.5307 
G01 X-33.2348 Y27.6880 
G01 X-33.2680 Y27.8549 
G01 X-33.2680 Y28.0251 
G01 X-33.2348 Y28.1920 
G01 X-33.1697 Y28.3493 
G01 X-33.0751 Y28.4908 
G01 X-32.9548 Y28.6111 
G01 X-32.8133 Y28.7057 
G01 X-32.6560 Y28.7708 
G01 X-32.4891 Y28.8040 
G01 X-31.0109 Y28.8040 
G01 X-30.8440 Y28.7708 
G01 X-30.6867 Y28.7057 
G01 X-30.5452 Y28.6111 
G00 Z2.5400 
G00 X-30.5452 Y20.9911 
G01 Z-0.2500 F254.00 
G01 X-30.4249 Y20.8708 F508.00 
G01 X-30.3303 Y20.7293 
G01 X-30.2652 Y20.5720 
G01 X-30.2320 Y20.4051 
G01 X-30.2320 Y20.2349 
G01 X-30.2652 Y20.0680 
G01 X-30.3303 Y19.9107 
G01 X-30.4249 Y19.7692 
G01 X-30.5452 Y19.6489 
G01 X-30.6867 Y19.5543 
G01 X-30.8440 Y19.4892 
G01 X-31.0109 Y19.4560 
G01 X-32.4891 Y19.4560 
G01 X-32.6560 Y19.4892 
G01 X-32.8133 Y19.5543 
G01 X-32.9548 Y19.6489 
G01 X-33.0751 Y19.7692 
G01 X-33.1697 Y19.9107 
G01 X-33.2348 Y20.0680 
G01 X-33.2680 Y20.2349 
G01 X-33.2680 Y20.4051 
G01 X-33.2348 Y20.5720 
G01 X-33.1697 Y20.7293 
G01 X-33.0751 Y20.8708 
G01 X-32.9548 Y20.9911 
G01 X-32.8133 Y21.0857 
G01 X-32.6560 Y21.1508 
G01 X-32.4891 Y21.1840 
G01 X-31.0109 Y21.1840 
G01 X-30.8440 Y21.1508 
G01 X-30.6867 Y21.0857 
G01 X-30.5452 Y20.9911 
G00 Z2.5400 
G00 X-30.5452 Y18.4511 
G01 Z-0.2500 F254.00 
G01 X-30.4249 Y18.3308 F508.00 
G01 X-30.3303 Y18.1893 
G01 X-30.2652 Y18.0320 
G01 X-30.2320 Y17.8651 
G01 X-30.2320 Y17.6949 
G01 X-30.2652 Y17.5280 
G01 X-30.3303 Y17.3707 
G01 X-30.4249 Y17.2292 
G01 X-30.5452 Y17.1089 
G01 X-30.6867 Y17.0143 
G01 X-30.8440 Y16.9492 
G01 X-31.0109 Y16.9160 
G01 X-32.4891 Y16.9160 
G01 X-32.6560 Y16.9492 
G01 X-32.8133 Y17.0143 
G01 X-32.9548 Y17.1089 
G01 X-33.0751 Y17.2292 
G01 X-33.1697 Y17.3707 
G01 X-33.2348 Y17.5280 
G01 X-33.2680 Y17.6949 
G01 X-33.2680 Y17.8651 
G01 X-33.2348 Y18.0320 
G01 X-33.1697 Y18.1893 
G01 X-33.0751 Y18.3308 
G01 X-32.9548 Y18.4511 
G01 X-32.8133 Y18.5457 
G01 X-32.6560 Y18.6108 
G01 X-32.4891 Y18.6440 
G01 X-31.0109 Y18.6440 
G01 X-30.8440 Y18.6108 
G01 X-30.6867 Y18.5457 
G01 X-30.5452 Y18.4511 
G00 Z2.5400 
G00 X-30.5452 Y13.3711 
G01 Z-0.2500 F254.00 
G01 X-30.4249 Y13.2508 F508.00 
G01 X-30.3303 Y13.1093 
G01 X-30.2652 Y12.9520 
G01 X-30.2320 Y12.7851 
G01 X-30.2320 Y12.6149 
G01 X-30.2652 Y12.4480 
G01 X-30.3303 Y12.2907 
G01 X-30.4249 Y12.1492 
G01 X-30.5452 Y12.0289 
G01 X-30.6867 Y11.9343 
G01 X-30.8440 Y11.8692 
G01 X-31.0109 Y11.8360 
G01 X-32.4891 Y11.8360 
G01 X-32.6560 Y11.8692 
G01 X-32.8133 Y11.9343 
G01 X-32.9548 Y12.0289 
G01 X-33.0751 Y12.1492 
G01 X-33.1697 Y12.2907 
G01 X-33.2348 Y12.4480 
G01 X-33.2680 Y12.6149 
G01 X-33.2680 Y12.7851 
G01 X-33.2348 Y12.9520 
G01 X-33.1697 Y13.1093 
G01 X-33.0751 Y13.2508 
G01 X-32.9548 Y13.3711 
G01 X-32.8133 Y13.4657 
G01 X-32.6560 Y13.5308 
G01 X-32.4891 Y13.5640 
G01 X-31.0109 Y13.5640 
G01 X-30.8440 Y13.5308 
G01 X-30.6867 Y13.4657 
G01 X-30.5452 Y13.3711 
G00 Z2.5400 
G00 X-30.5452 Y8.2911 
G01 Z-0.2500 F254.00 
G01 X-30.4249 Y8.1708 F508.00 
G01 X-30.3303 Y8.0293 
G01 X-30.2652 Y7.8720 
G01 X-30.2320 Y7.7051 
G01 X-30.2320 Y7.5349 
G01 X-30.2652 Y7.3680 
G01 X-30.3303 Y7.2107 
G01 X-30.4249 Y7.0692 
G01 X-30.5452 Y6.9489 
G01 X-30.6867 Y6.8543 
G01 X-30.8440 Y6.7892 
G01 X-31.0109 Y6.7560 
G01 X-32.4891 Y6.7560 
G01 X-32.6560 Y6.7892 
G01 X-32.8133 Y6.8543 
G01 X-32.9548 Y6.9489 
G01 X-33.0751 Y7.0692 
G01 X-33.1697 Y7.2107 
G01 X-33.2348 Y7.3680 
G01 X-33.2680 Y7.5349 
G01 X-33.2680 Y7.7051 
G01 X-33.2348 Y7.8720 
G01 X-33.1697 Y8.0293 
G01 X-33.0751 Y8.1708 
G01 X-32.9548 Y8.2911 
G01 X-32.8133 Y8.3857 
G01 X-32.6560 Y8.4508 
G01 X-32.4891 Y8.4840 
G01 X-31.0109 Y8.4840 
G01 X-30.8440 Y8.4508 
G01 X-30.6867 Y8.3857 
G01 X-30.5452 Y8.2911 
G00 Z2.5400 
G00 X-36.1589 Y8.3392 
G01 Z-0.2500 F254.00 
G01 X-36.2792 Y8.2189 F508.00 
G01 X-36.4207 Y8.1243 
G01 X-36.5780 Y8.0592 
G01 X-36.7449 Y8.0260 
G01 X-36.9151 Y8.0260 
G01 X-37.0820 Y8.0592 
G01 X-37.2393 Y8.1243 
G01 X-37.3808 Y8.2189 
G01 X-37.5011 Y8.3392 
G01 X-37.5957 Y8.4807 
G01 X-37.6608 Y8.6380 
G01 X-37.6940 Y8.8049 
G01 X-37.6940 Y8.9751 
G01 X-37.6608 Y9.1420 
G01 X-37.5957 Y9.2993 
G01 X-37.5011 Y9.4408 
G01 X-37.3808 Y9.5611 
G01 X-37.2393 Y9.6557 
G01 X-37.0820 Y9.7208 
G01 X-36.9151 Y9.7540 
G01 X-36.7449 Y9.7540 
G01 X-36.5780 Y9.7208 
G01 X-36.4207 Y9.6557 
G01 X-36.2792 Y9.5611 
G01 X-36.1589 Y9.4408 
G01 X-36.0643 Y9.2993 
G01 X-35.9992 Y9.1420 
G01 X-35.9660 Y8.9751 
G01 X-35.9660 Y8.8049 
G01 X-35.9992 Y8.6380 
G01 X-36.0643 Y8.4807 
G01 X-36.1589 Y8.3392 
G00 Z2.5400 
G00 X-36.2792 Y7.0211 
G01 Z-0.2500 F254.00 
G01 X-36.1589 Y6.9008 F508.00 
G01 X-36.0643 Y6.7593 
G01 X-35.9992 Y6.6020 
G01 X-35.9660 Y6.4351 
G01 X-35.9660 Y6.2649 
G01 X-35.9992 Y6.0980 
G01 X-36.0643 Y5.9407 
G01 X-36.1589 Y5.7992 
G01 X-36.2792 Y5.6789 
G01 X-36.4207 Y5.5843 
G01 X-36.5780 Y5.5192 
G01 X-36.7449 Y5.4860 
G01 X-36.9151 Y5.4860 
G01 X-37.0820 Y5.5192 
G01 X-37.2393 Y5.5843 
G01 X-37.3808 Y5.6789 
G01 X-37.5011 Y5.7992 
G01 X-37.5957 Y5.9407 
G01 X-37.6608 Y6.0980 
G01 X-37.6940 Y6.2649 
G01 X-37.6940 Y6.4351 
G01 X-37.6608 Y6.6020 
G01 X-37.5957 Y6.7593 
G01 X-37.5011 Y6.9008 
G01 X-37.3808 Y7.0211 
G01 X-37.2393 Y7.1157 
G01 X-37.0820 Y7.1808 
G01 X-36.9151 Y7.2140 
G01 X-36.7449 Y7.2140 
G01 X-36.5780 Y7.1808 
G01 X-36.4207 Y7.1157 
G01 X-36.2792 Y7.0211 
G00 Z2.5400 
G00 X-38.8192 Y7.0211 
G01 Z-0.2500 F254.00 
G01 X-38.6989 Y6.9008 F508.00 
G01 X-38.6043 Y6.7593 
G01 X-38.5392 Y6.6020 
G01 X-38.5060 Y6.4351 
G01 X-38.5060 Y6.2649 
G01 X-38.5392 Y6.0980 
G01 X-38.6043 Y5.9407 
G01 X-38.6989 Y5.7992 
G01 X-38.8192 Y5.6789 
G01 X-38.9607 Y5.5843 
G01 X-39.1180 Y5.5192 
G01 X-39.2849 Y5.4860 
G01 X-39.4551 Y5.4860 
G01 X-39.6220 Y5.5192 
G01 X-39.7793 Y5.5843 
G01 X-39.9208 Y5.6789 
G01 X-40.0411 Y5.7992 
G01 X-40.1357 Y5.9407 
G01 X-40.2008 Y6.0980 
G01 X-40.2340 Y6.2649 
G01 X-40.2340 Y6.4351 
G01 X-40.2008 Y6.6020 
G01 X-40.1357 Y6.7593 
G01 X-40.0411 Y6.9008 
G01 X-39.9208 Y7.0211 
G01 X-39.7793 Y7.1157 
G01 X-39.6220 Y7.1808 
G01 X-39.4551 Y7.2140 
G01 X-39.2849 Y7.2140 
G01 X-39.1180 Y7.1808 
G01 X-38.9607 Y7.1157 
G01 X-38.8192 Y7.0211 
G00 Z2.5400 
G00 X-38.8192 Y8.2189 
G01 Z-0.2500 F254.00 
G01 X-38.9607 Y8.1243 F508.00 
G01 X-39.1180 Y8.0592 
G01 X-39.2849 Y8.0260 
G01 X-39.4551 Y8.0260 
G01 X-39.6220 Y8.0592 
G01 X-39.7793 Y8.1243 
G01 X-39.9208 Y8.2189 
G01 X-40.0411 Y8.3392 
G01 X-40.1357 Y8.4807 
G01 X-40.2008 Y8.6380 
G01 X-40.2340 Y8.8049 
G01 X-40.2340 Y8.9751 
G01 X-40.2008 Y9.1420 
G01 X-40.1357 Y9.2993 
G01 X-40.0411 Y9.4408 
G01 X-39.9208 Y9.5611 
G01 X-39.7793 Y9.6557 
G01 X-39.6220 Y9.7208 
G01 X-39.4551 Y9.7540 
G01 X-39.2849 Y9.7540 
G01 X-39.1180 Y9.7208 
G01 X-38.9607 Y9.6557 
G01 X-38.8192 Y9.5611 
G01 X-38.6989 Y9.4408 
G01 X-38.6043 Y9.2993 
G01 X-38.5392 Y9.1420 
G01 X-38.5060 Y8.9751 
G01 X-38.5060 Y8.8049 
G01 X-38.5392 Y8.6380 
G01 X-38.6043 Y8.4807 
G01 X-38.6989 Y8.3392 
G01 X-38.8192 Y8.2189 
G00 Z2.5400 
G00 X-41.2389 Y8.3392 
G01 Z-0.2500 F254.00 
G01 X-41.3592 Y8.2189 F508.00 
G01 X-41.5007 Y8.1243 
G01 X-41.6580 Y8.0592 
G01 X-41.8249 Y8.0260 
G01 X-41.9951 Y8.0260 
G01 X-42.1620 Y8.0592 
G01 X-42.3193 Y8.1243 
G01 X-42.4608 Y8.2189 
G01 X-42.5811 Y8.3392 
G01 X-42.6757 Y8.4807 
G01 X-42.7408 Y8.6380 
G01 X-42.7740 Y8.8049 
G01 X-42.7740 Y8.9751 
G01 X-42.7408 Y9.1420 
G01 X-42.6757 Y9.2993 
G01 X-42.5811 Y9.4408 
G01 X-42.4608 Y9.5611 
G01 X-42.3193 Y9.6557 
G01 X-42.1620 Y9.7208 
G01 X-41.9951 Y9.7540 
G01 X-41.8249 Y9.7540 
G01 X-41.6580 Y9.7208 
G01 X-41.5007 Y9.6557 
G01 X-41.3592 Y9.5611 
G01 X-41.2389 Y9.4408 
G01 X-41.1443 Y9.2993 
G01 X-41.0792 Y9.1420 
G01 X-41.0460 Y8.9751 
G01 X-41.0460 Y8.8049 
G01 X-41.0792 Y8.6380 
G01 X-41.1443 Y8.4807 
G01 X-41.2389 Y8.3392 
G00 Z2.5400 
G00 X-41.3592 Y7.0211 
G01 Z-0.2500 F254.00 
G01 X-41.2389 Y6.9008 F508.00 
G01 X-41.1443 Y6.7593 
G01 X-41.0792 Y6.6020 
G01 X-41.0460 Y6.4351 
G01 X-41.0460 Y6.2649 
G01 X-41.0792 Y6.0980 
G01 X-41.1443 Y5.9407 
G01 X-41.2389 Y5.7992 
G01 X-41.3592 Y5.6789 
G01 X-41.5007 Y5.5843 
G01 X-41.6580 Y5.5192 
G01 X-41.8249 Y5.4860 
G01 X-41.9951 Y5.4860 
G01 X-42.1620 Y5.5192 
G01 X-42.3193 Y5.5843 
G01 X-42.4608 Y5.6789 
G01 X-42.5811 Y5.7992 
G01 X-42.6757 Y5.9407 
G01 X-42.7408 Y6.0980 
G01 X-42.7740 Y6.2649 
G01 X-42.7740 Y6.4351 
G01 X-42.7408 Y6.6020 
G01 X-42.6757 Y6.7593 
G01 X-42.5811 Y6.9008 
G01 X-42.4608 Y7.0211 
G01 X-42.3193 Y7.1157 
G01 X-42.1620 Y7.1808 
G01 X-41.9951 Y7.2140 
G01 X-41.8249 Y7.2140 
G01 X-41.6580 Y7.1808 
G01 X-41.5007 Y7.1157 
G01 X-41.3592 Y7.0211 
G00 Z2.5400 
G00 X-45.6649 Y7.0692 
G01 Z-0.2500 F254.00 
G01 X-45.7852 Y6.9489 F508.00 
G01 X-45.9267 Y6.8543 
G01 X-46.0840 Y6.7892 
G01 X-46.2509 Y6.7560 
G01 X-47.7291 Y6.7560 
G01 X-47.8960 Y6.7892 
G01 X-48.0533 Y6.8543 
G01 X-48.1948 Y6.9489 
G01 X-48.3151 Y7.0692 
G01 X-48.4097 Y7.2107 
G01 X-48.4748 Y7.3680 
G01 X-48.5080 Y7.5349 
G01 X-48.5080 Y7.7051 
G01 X-48.4748 Y7.8720 
G01 X-48.4097 Y8.0293 
G01 X-48.3151 Y8.1708 
G01 X-48.1948 Y8.2911 
G01 X-48.0533 Y8.3857 
G01 X-47.8960 Y8.4508 
G01 X-47.7291 Y8.4840 
G01 X-46.2509 Y8.4840 
G01 X-46.0840 Y8.4508 
G01 X-45.9267 Y8.3857 
G01 X-45.7852 Y8.2911 
G01 X-45.6649 Y8.1708 
G01 X-45.5703 Y8.0293 
G01 X-45.5052 Y7.8720 
G01 X-45.4720 Y7.7051 
G01 X-45.4720 Y7.5349 
G01 X-45.5052 Y7.3680 
G01 X-45.5703 Y7.2107 
G01 X-45.6649 Y7.0692 
G00 Z2.5400 
G00 X-45.6649 Y9.6092 
G01 Z-0.2500 F254.00 
G01 X-45.7852 Y9.4889 F508.00 
G01 X-45.9267 Y9.3943 
G01 X-46.0840 Y9.3292 
G01 X-46.2509 Y9.2960 
G01 X-47.7291 Y9.2960 
G01 X-47.8960 Y9.3292 
G01 X-48.0533 Y9.3943 
G01 X-48.1948 Y9.4889 
G01 X-48.3151 Y9.6092 
G01 X-48.4097 Y9.7507 
G01 X-48.4748 Y9.9080 
G01 X-48.5080 Y10.0749 
G01 X-48.5080 Y10.2451 
G01 X-48.4748 Y10.4120 
G01 X-48.4097 Y10.5693 
G01 X-48.3151 Y10.7108 
G01 X-48.1948 Y10.8311 
G01 X-48.0533 Y10.9257 
G01 X-47.8960 Y10.9908 
G01 X-47.7291 Y11.0240 
G01 X-46.2509 Y11.0240 
G01 X-46.0840 Y10.9908 
G01 X-45.9267 Y10.9257 
G01 X-45.7852 Y10.8311 
G01 X-45.6649 Y10.7108 
G01 X-45.5703 Y10.5693 
G01 X-45.5052 Y10.4120 
G01 X-45.4720 Y10.2451 
G01 X-45.4720 Y10.0749 
G01 X-45.5052 Y9.9080 
G01 X-45.5703 Y9.7507 
G01 X-45.6649 Y9.6092 
G00 Z2.5400 
G00 X-45.6649 Y12.1492 
G01 Z-0.2500 F254.00 
G01 X-45.7852 Y12.0289 F508.00 
G01 X-45.9267 Y11.9343 
G01 X-46.0840 Y11.8692 
G01 X-46.2509 Y11.8360 
G01 X-47.7291 Y11.8360 
G01 X-47.8960 Y11.8692 
G01 X-48.0533 Y11.9343 
G01 X-48.1948 Y12.0289 
G01 X-48.3151 Y12.1492 
G01 X-48.4097 Y12.2907 
G01 X-48.4748 Y12.4480 
G01 X-48.5080 Y12.6149 
G01 X-48.5080 Y12.7851 
G01 X-48.4748 Y12.9520 
G01 X-48.4097 Y13.1093 
G01 X-48.3151 Y13.2508 
G01 X-48.1948 Y13.3711 
G01 X-48.0533 Y13.4657 
G01 X-47.8960 Y13.5308 
G01 X-47.7291 Y13.5640 
G01 X-46.2509 Y13.5640 
G01 X-46.0840 Y13.5308 
G01 X-45.9267 Y13.4657 
G01 X-45.7852 Y13.3711 
G01 X-45.6649 Y13.2508 
G01 X-45.5703 Y13.1093 
G01 X-45.5052 Y12.9520 
G01 X-45.4720 Y12.7851 
G01 X-45.4720 Y12.6149 
G01 X-45.5052 Y12.4480 
G01 X-45.5703 Y12.2907 
G01 X-45.6649 Y12.1492 
G00 Z2.5400 
G00 X-45.6649 Y14.6892 
G01 Z-0.2500 F254.00 
G01 X-45.7852 Y14.5689 F508.00 
G01 X-45.9267 Y14.4743 
G01 X-46.0840 Y14.4092 
G01 X-46.2509 Y14.3760 
G01 X-47.7291 Y14.3760 
G01 X-47.8960 Y14.4092 
G01 X-48.0533 Y14.4743 
G01 X-48.1948 Y14.5689 
G01 X-48.3151 Y14.6892 
G01 X-48.4097 Y14.8307 
G01 X-48.4748 Y14.9880 
G01 X-48.5080 Y15.1549 
G01 X-48.5080 Y15.3251 
G01 X-48.4748 Y15.4920 
G01 X-48.4097 Y15.6493 
G01 X-48.3151 Y15.7908 
G01 X-48.1948 Y15.9111 
G01 X-48.0533 Y16.0057 
G01 X-47.8960 Y16.0708 
G01 X-47.7291 Y16.1040 
G01 X-46.2509 Y16.1040 
G01 X-46.0840 Y16.0708 
G01 X-45.9267 Y16.0057 
G01 X-45.7852 Y15.9111 
G01 X-45.6649 Y15.7908 
G01 X-45.5703 Y15.6493 
G01 X-45.5052 Y15.4920 
G01 X-45.4720 Y15.3251 
G01 X-45.4720 Y15.1549 
G01 X-45.5052 Y14.9880 
G01 X-45.5703 Y14.8307 
G01 X-45.6649 Y14.6892 
G00 Z2.5400 
G00 X-46.1554 Y16.9350 
G01 Z-0.2500 F254.00 
G01 X-46.2509 Y16.9160 F508.00 
G01 X-47.7291 Y16.9160 
G01 X-47.8960 Y16.9492 
G01 X-48.0533 Y17.0143 
G01 X-48.1948 Y17.1089 
G01 X-48.3151 Y17.2292 
G01 X-48.4097 Y17.3707 
G01 X-48.4748 Y17.5280 
G01 X-48.5080 Y17.6949 
G01 X-48.5080 Y17.8651 
G01 X-48.4748 Y18.0320 
G01 X-48.4097 Y18.1893 
G01 X-48.3151 Y18.3308 
G01 X-48.1948 Y18.4511 
G01 X-48.0533 Y18.5457 
G01 X-47.8960 Y18.6108 
G01 X-47.7291 Y18.6440 
G01 X-46.2509 Y18.6440 
G01 X-46.1554 Y18.6250 
G01 X-38.9450 Y18.6250 
G01 X-38.9450 Y45.8032 
G01 X-38.9125 Y45.9665 
G01 X-38.8488 Y46.1203 
G01 X-38.7564 Y46.2587 
G01 X-38.6387 Y46.3764 
G01 X-38.5003 Y46.4688 
G01 X-38.3465 Y46.5325 
G01 X-38.1832 Y46.5650 
G01 X-26.5244 Y46.5650 
G01 X-26.5244 Y48.0751 
G01 X-26.4948 Y48.2617 
G01 X-26.4364 Y48.4415 
G01 X-26.3506 Y48.6099 
G01 X-26.2396 Y48.7627 
G01 X-26.1059 Y48.8964 
G01 X-25.9531 Y49.0074 
G01 X-25.7847 Y49.0932 
G01 X-25.6049 Y49.1516 
G01 X-25.4183 Y49.1812 
G01 X-25.2293 Y49.1812 
G01 X-25.0427 Y49.1516 
G01 X-24.8629 Y49.0932 
G01 X-24.6945 Y49.0074 
G01 X-24.5417 Y48.8964 
G01 X-24.4080 Y48.7627 
G01 X-24.2970 Y48.6099 
G01 X-24.2112 Y48.4415 
G01 X-24.1528 Y48.2617 
G01 X-24.1232 Y48.0751 
G01 X-24.1232 Y45.9049 
G01 X-24.1528 Y45.7183 
G01 X-24.2112 Y45.5385 
G01 X-24.2970 Y45.3701 
G01 X-24.4080 Y45.2173 
G01 X-24.5417 Y45.0836 
G01 X-24.6945 Y44.9726 
G01 X-24.8629 Y44.8868 
G01 X-25.0427 Y44.8284 
G01 X-25.2293 Y44.7988 
G01 X-25.4183 Y44.7988 
G01 X-25.6049 Y44.8284 
G01 X-25.7485 Y44.8750 
G01 X-37.2550 Y44.8750 
G01 X-37.2550 Y17.8632 
G01 X-37.2550 Y17.6968 
G01 X-37.2875 Y17.5335 
G01 X-37.3512 Y17.3797 
G01 X-37.4436 Y17.2413 
G01 X-37.5613 Y17.1236 
G01 X-37.6997 Y17.0312 
G01 X-37.8535 Y16.9675 
G01 X-38.0168 Y16.9350 
G01 X-46.1554 Y16.9350 
G00 Z2.5400 
G00 X-46.2509 Y19.4560 
G01 Z-0.2500 F254.00 
G01 X-47.7291 Y19.4560 F508.00 
G01 X-47.8960 Y19.4892 
G01 X-48.0533 Y19.5543 
G01 X-48.1948 Y19.6489 
G01 X-48.3151 Y19.7692 
G01 X-48.4097 Y19.9107 
G01 X-48.4748 Y20.0680 
G01 X-48.5080 Y20.2349 
G01 X-48.5080 Y20.4051 
G01 X-48.4748 Y20.5720 
G01 X-48.4097 Y20.7293 
G01 X-48.3151 Y20.8708 
G01 X-48.1948 Y20.9911 
G01 X-48.0533 Y21.0857 
G01 X-47.8960 Y21.1508 
G01 X-47.7291 Y21.1840 
G01 X-46.2509 Y21.1840 
G01 X-46.0840 Y21.1508 
G01 X-45.9267 Y21.0857 
G01 X-45.7852 Y20.9911 
G01 X-45.6649 Y20.8708 
G01 X-45.5703 Y20.7293 
G01 X-45.5052 Y20.5720 
G01 X-45.4720 Y20.4051 
G01 X-45.4720 Y20.2349 
G01 X-45.5052 Y20.0680 
G01 X-45.5703 Y19.9107 
G01 X-45.6649 Y19.7692 
G01 X-45.7852 Y19.6489 
G01 X-45.9267 Y19.5543 
G01 X-46.0840 Y19.4892 
G01 X-46.2509 Y19.4560 
G00 Z2.5400 
G00 X-46.2509 Y21.9960 
G01 Z-0.2500 F254.00 
G01 X-47.7291 Y21.9960 F508.00 
G01 X-47.8960 Y22.0292 
G01 X-48.0533 Y22.0943 
G01 X-48.1948 Y22.1889 
G01 X-48.3151 Y22.3092 
G01 X-48.4097 Y22.4507 
G01 X-48.4748 Y22.6080 
G01 X-48.5080 Y22.7749 
G01 X-48.5080 Y22.9451 
G01 X-48.4748 Y23.1120 
G01 X-48.4097 Y23.2693 
G01 X-48.3151 Y23.4108 
G01 X-48.1948 Y23.5311 
G01 X-48.0533 Y23.6257 
G01 X-47.8960 Y23.6908 
G01 X-47.7291 Y23.7240 
G01 X-46.2509 Y23.7240 
G01 X-46.0840 Y23.6908 
G01 X-45.9267 Y23.6257 
G01 X-45.7852 Y23.5311 
G01 X-45.6649 Y23.4108 
G01 X-45.5703 Y23.2693 
G01 X-45.5052 Y23.1120 
G01 X-45.4720 Y22.9451 
G01 X-45.4720 Y22.7749 
G01 X-45.5052 Y22.6080 
G01 X-45.5703 Y22.4507 
G01 X-45.6649 Y22.3092 
G01 X-45.7852 Y22.1889 
G01 X-45.9267 Y22.0943 
G01 X-46.0840 Y22.0292 
G01 X-46.2509 Y21.9960 
G00 Z2.5400 
G00 X-46.2509 Y24.5360 
G01 Z-0.2500 F254.00 
G01 X-47.7291 Y24.5360 F508.00 
G01 X-47.8960 Y24.5692 
G01 X-48.0533 Y24.6343 
G01 X-48.1948 Y24.7289 
G01 X-48.3151 Y24.8492 
G01 X-48.4097 Y24.9907 
G01 X-48.4748 Y25.1480 
G01 X-48.5080 Y25.3149 
G01 X-48.5080 Y25.4851 
G01 X-48.4748 Y25.6520 
G01 X-48.4097 Y25.8093 
G01 X-48.3151 Y25.9508 
G01 X-48.1948 Y26.0711 
G01 X-48.0533 Y26.1657 
G01 X-47.8960 Y26.2308 
G01 X-47.7291 Y26.2640 
G01 X-46.2509 Y26.2640 
G01 X-46.0840 Y26.2308 
G01 X-45.9267 Y26.1657 
G01 X-45.7852 Y26.0711 
G01 X-45.6649 Y25.9508 
G01 X-45.5703 Y25.8093 
G01 X-45.5052 Y25.6520 
G01 X-45.4720 Y25.4851 
G01 X-45.4720 Y25.3149 
G01 X-45.5052 Y25.1480 
G01 X-45.5703 Y24.9907 
G01 X-45.6649 Y24.8492 
G01 X-45.7852 Y24.7289 
G01 X-45.9267 Y24.6343 
G01 X-46.0840 Y24.5692 
G01 X-46.2509 Y24.5360 
G00 Z2.5400 
G00 X-46.2509 Y27.0760 
G01 Z-0.2500 F254.00 
G01 X-47.7291 Y27.0760 F508.00 
G01 X-47.8246 Y27.0950 
G01 X-51.2250 Y27.0950 
G01 X-51.2250 Y22.7260 
G01 X-51.2575 Y22.5627 
G01 X-51.3212 Y22.4089 
G01 X-51.4136 Y22.2705 
G01 X-51.5313 Y22.1528 
G01 X-51.6697 Y22.0604 
G01 X-51.8235 Y21.9967 
G01 X-51.9868 Y21.9642 
G01 X-57.8465 Y21.9642 
G01 X-57.9173 Y21.8934 
G01 X-58.0701 Y21.7824 
G01 X-58.2385 Y21.6966 
G01 X-58.4183 Y21.6382 
G01 X-58.6049 Y21.6086 
G01 X-60.7751 Y21.6086 
G01 X-60.9617 Y21.6382 
G01 X-61.1415 Y21.6966 
G01 X-61.3098 Y21.7824 
G01 X-61.4627 Y21.8934 
G01 X-61.5964 Y22.0271 
G01 X-61.7074 Y22.1799 
G01 X-61.7932 Y22.3483 
G01 X-61.8516 Y22.5281 
G01 X-61.8812 Y22.7147 
G01 X-61.8812 Y22.9037 
G01 X-61.8516 Y23.0903 
G01 X-61.7932 Y23.2701 
G01 X-61.7074 Y23.4384 
G01 X-61.5964 Y23.5913 
G01 X-61.4627 Y23.7250 
G01 X-61.3098 Y23.8360 
G01 X-61.1415 Y23.9218 
G01 X-60.9617 Y23.9802 
G01 X-60.7751 Y24.0098 
G01 X-58.6049 Y24.0098 
G01 X-58.4183 Y23.9802 
G01 X-58.2385 Y23.9218 
G01 X-58.0701 Y23.8360 
G01 X-57.9173 Y23.7250 
G01 X-57.8465 Y23.6542 
G01 X-52.9150 Y23.6542 
G01 X-52.9150 Y28.0232 
G01 X-52.8825 Y28.1865 
G01 X-52.8188 Y28.3403 
G01 X-52.7264 Y28.4787 
G01 X-52.6087 Y28.5964 
G01 X-52.4703 Y28.6888 
G01 X-52.3165 Y28.7525 
G01 X-52.1532 Y28.7850 
G01 X-47.8246 Y28.7850 
G01 X-47.7291 Y28.8040 
G01 X-46.2509 Y28.8040 
G01 X-46.1554 Y28.7850 
G01 X-45.6368 Y28.7850 
G01 X-45.4735 Y28.7525 
G01 X-45.3197 Y28.6888 
G01 X-45.1813 Y28.5964 
G01 X-45.0636 Y28.4787 
G01 X-44.9712 Y28.3403 
G01 X-44.9075 Y28.1865 
G01 X-44.8750 Y28.0232 
G01 X-44.8750 Y27.8568 
G01 X-44.9075 Y27.6935 
G01 X-44.9712 Y27.5397 
G01 X-45.0636 Y27.4013 
G01 X-45.1813 Y27.2836 
G01 X-45.3197 Y27.1912 
G01 X-45.4735 Y27.1275 
G01 X-45.6368 Y27.0950 
G01 X-46.1554 Y27.0950 
G01 X-46.2509 Y27.0760 
G00 Z2.5400 
G00 X-46.2509 Y29.6160 
G01 Z-0.2500 F254.00 
G01 X-47.7291 Y29.6160 F508.00 
G01 X-47.8246 Y29.6350 
G01 X-53.7650 Y29.6350 
G01 X-53.7650 Y27.8568 
G01 X-53.7975 Y27.6935 
G01 X-53.8612 Y27.5397 
G01 X-53.9536 Y27.4013 
G01 X-54.0713 Y27.2836 
G01 X-54.2097 Y27.1912 
G01 X-54.3635 Y27.1275 
G01 X-54.5268 Y27.0950 
G01 X-57.7555 Y27.0950 
G01 X-57.7836 Y27.0563 
G01 X-57.9173 Y26.9226 
G01 X-58.0701 Y26.8116 
G01 X-58.2385 Y26.7258 
G01 X-58.4183 Y26.6674 
G01 X-58.6049 Y26.6378 
G01 X-60.7751 Y26.6378 
G01 X-60.9617 Y26.6674 
G01 X-61.1415 Y26.7258 
G01 X-61.3098 Y26.8116 
G01 X-61.4627 Y26.9226 
G01 X-61.5964 Y27.0563 
G01 X-61.7074 Y27.2091 
G01 X-61.7932 Y27.3775 
G01 X-61.8516 Y27.5573 
G01 X-61.8812 Y27.7439 
G01 X-61.8812 Y27.9329 
G01 X-61.8516 Y28.1195 
G01 X-61.7932 Y28.2993 
G01 X-61.7074 Y28.4676 
G01 X-61.5964 Y28.6205 
G01 X-61.4627 Y28.7542 
G01 X-61.3098 Y28.8652 
G01 X-61.1415 Y28.9510 
G01 X-60.9617 Y29.0094 
