(.../EAGLE-7.5.0/pcb-gcode/pcb-gcode.ulp)
(Copyright 2005 - 2012 by John Johnson)
(See readme.txt for licensing terms.)
(This file generated from the board:)
(.../eagle/comando serra/serra1.brd)
(Current profile is .../EAGLE-7.5.0/pcb-gcode/profiles/emc.pp  )
(This file generated 29/03/2017 12:51)
(Settings from pcb-machine.h)
(spindle on time = 3.0000)
(spindle speed = 20000.0000)
(tool change at 0.0000 0.0000 25.4000 )
(feed rate xy = F0.00  )
(feed rate z  = F508.00 )
(Z Axis Settings)
(  High     Up        Down     Drill)
(10.0000 	2.5400 	-0.2500 	-1.9000 )
(Settings from pcb-defaults.h)
(isolate min = 0.0100)
(isolate max = 0.8000)
(isolate step = 0.1000)
(Generated bottom outlines, bottom drill, )
(Unit of measure: mm)
( Tool|       Size       |  Min Sub |  Max Sub |   Count )
( T01 | 0.600mm 0.0236in | 0.0000in | 0.0000in |       0 )
( T02 | 0.800mm 0.0315in | 0.0000in | 0.0000in |       0 )
( T03 | 0.813mm 0.0320in | 0.0000in | 0.0000in |       0 )
( T04 | 1.000mm 0.0394in | 0.0000in | 0.0000in |       0 )
( T05 | 1.016mm 0.0400in | 0.0000in | 0.0000in |       0 )
( T06 | 1.321mm 0.0520in | 0.0000in | 0.0000in |       0 )
(Metric Mode)
G21
(Absolute Coordinates)
G90
S20000
G00 Z10.0000 
G00 X0.0000 Y0.0000 
M03
G04 P3.000000
M05
G00 Z25.4000 
M06 T01 (0.6000 )
G01 Z0.0000 F508.00 
M06 
G00 Z2.5400 
M03
G04 P3.000000
G00 X-6.3500 Y5.0800 
G01 Z-1.9000 F508.00 
G00 Z2.5400 
G00 X-15.2400 Y63.5000 
G01 Z-1.9000 F508.00 
G00 Z2.5400 
G00 X-20.3200 Y63.5000 
G01 Z-1.9000 F508.00 
G00 Z2.5400 
G00 X-6.3500 Y64.7700 
G01 Z-1.9000 F508.00 
G00 Z2.5400 
G00 X-66.0400 Y64.7700 
G01 Z-1.9000 F508.00 
G00 Z2.5400 
G00 X-66.0400 Y5.0800 
G01 Z-1.9000 F508.00 
G00 Z2.5400 
M05
G00 Z25.4000 
G00 X0.0000 Y0.0000 
M06 T01 (0.8000 )
G01 Z0.0000 F508.00 
M06 
G00 Z2.5400 
M03
G04 P3.000000
G00 X-31.7500 Y7.6200 
G01 Z-1.9000 F508.00 
G00 Z2.5400 
G00 X-31.7500 Y10.1600 
G01 Z-1.9000 F508.00 
G00 Z2.5400 
G00 X-31.7500 Y12.7000 
G01 Z-1.9000 F508.00 
G00 Z2.5400 
G00 X-31.7500 Y15.2400 
G01 Z-1.9000 F508.00 
G00 Z2.5400 
G00 X-31.7500 Y17.7800 
G01 Z-1.9000 F508.00 
G00 Z2.5400 
G00 X-31.7500 Y20.3200 
G01 Z-1.9000 F508.00 
G00 Z2.5400 
G00 X-31.7500 Y22.8600 
G01 Z-1.9000 F508.00 
G00 Z2.5400 
G00 X-31.7500 Y25.4000 
G01 Z-1.9000 F508.00 
G00 Z2.5400 
G00 X-31.7500 Y27.9400 
G01 Z-1.9000 F508.00 
G00 Z2.5400 
G00 X-31.7500 Y30.4800 
G01 Z-1.9000 F508.00 
G00 Z2.5400 
G00 X-31.7500 Y33.0200 
G01 Z-1.9000 F508.00 
G00 Z2.5400 
G00 X-31.7500 Y35.5600 
G01 Z-1.9000 F508.00 
G00 Z2.5400 
G00 X-31.7500 Y38.1000 
G01 Z-1.9000 F508.00 
G00 Z2.5400 
G00 X-31.7500 Y40.6400 
G01 Z-1.9000 F508.00 
G00 Z2.5400 
G00 X-31.7500 Y43.1800 
G01 Z-1.9000 F508.00 
G00 Z2.5400 
G00 X-46.9900 Y43.1800 
G01 Z-1.9000 F508.00 
G00 Z2.5400 
G00 X-46.9900 Y40.6400 
G01 Z-1.9000 F508.00 
G00 Z2.5400 
G00 X-46.9900 Y38.1000 
G01 Z-1.9000 F508.00 
G00 Z2.5400 
G00 X-46.9900 Y35.5600 
G01 Z-1.9000 F508.00 
G00 Z2.5400 
G00 X-46.9900 Y33.0200 
G01 Z-1.9000 F508.00 
G00 Z2.5400 
G00 X-46.9900 Y30.4800 
G01 Z-1.9000 F508.00 
G00 Z2.5400 
G00 X-46.9900 Y27.9400 
G01 Z-1.9000 F508.00 
G00 Z2.5400 
G00 X-46.9900 Y25.4000 
G01 Z-1.9000 F508.00 
G00 Z2.5400 
G00 X-46.9900 Y22.8600 
G01 Z-1.9000 F508.00 
G00 Z2.5400 
G00 X-46.9900 Y20.3200 
G01 Z-1.9000 F508.00 
G00 Z2.5400 
G00 X-46.9900 Y17.7800 
G01 Z-1.9000 F508.00 
G00 Z2.5400 
G00 X-46.9900 Y15.2400 
G01 Z-1.9000 F508.00 
G00 Z2.5400 
G00 X-46.9900 Y12.7000 
G01 Z-1.9000 F508.00 
G00 Z2.5400 
G00 X-46.9900 Y10.1600 
G01 Z-1.9000 F508.00 
G00 Z2.5400 
G00 X-46.9900 Y7.6200 
G01 Z-1.9000 F508.00 
G00 Z2.5400 
G00 X-41.9100 Y6.3500 
G01 Z-1.9000 F508.00 
G00 Z2.5400 
G00 X-39.3700 Y6.3500 
G01 Z-1.9000 F508.00 
G00 Z2.5400 
G00 X-36.8300 Y6.3500 
G01 Z-1.9000 F508.00 
G00 Z2.5400 
G00 X-36.8300 Y8.8900 
G01 Z-1.9000 F508.00 
G00 Z2.5400 
G00 X-39.3700 Y8.8900 
G01 Z-1.9000 F508.00 
G00 Z2.5400 
G00 X-41.9100 Y8.8900 
G01 Z-1.9000 F508.00 
G00 Z2.5400 
M05
G00 Z25.4000 
G00 X0.0000 Y0.0000 
M06 T01 (0.8128 )
G01 Z0.0000 F508.00 
M06 
G00 Z2.5400 
M03
G04 P3.000000
G00 X-15.2400 Y63.5000 
G01 Z-1.9000 F508.00 
G00 Z2.5400 
G00 X-20.3200 Y63.5000 
G01 Z-1.9000 F508.00 
G00 Z2.5400 
M05
G00 Z25.4000 
G00 X0.0000 Y0.0000 
M06 T01 (1.0000 )
G01 Z0.0000 F508.00 
M06 
G00 Z2.5400 
M03
G04 P3.000000
G00 X-2.5400 Y35.5600 
G01 Z-1.9000 F508.00 
G00 Z2.5400 
G00 X-5.0800 Y35.5600 
G01 Z-1.9000 F508.00 
G00 Z2.5400 
G00 X-7.6200 Y35.5600 
G01 Z-1.9000 F508.00 
G00 Z2.5400 
G00 X-10.1600 Y35.5600 
G01 Z-1.9000 F508.00 
G00 Z2.5400 
G00 X-17.7800 Y25.4000 
G01 Z-1.9000 F508.00 
G00 Z2.5400 
G00 X-17.7800 Y22.8600 
G01 Z-1.9000 F508.00 
G00 Z2.5400 
G00 X-17.7800 Y20.3200 
G01 Z-1.9000 F508.00 
G00 Z2.5400 
G00 X-17.7800 Y17.7800 
G01 Z-1.9000 F508.00 
G00 Z2.5400 
M05
G00 Z25.4000 
G00 X0.0000 Y0.0000 
M06 T01 (1.0160 )
G01 Z0.0000 F508.00 
M06 
G00 Z2.5400 
M03
G04 P3.000000
G00 X-38.1000 Y57.1500 
G01 Z-1.9000 F508.00 
G00 Z2.5400 
G00 X-38.1000 Y59.6900 
G01 Z-1.9000 F508.00 
G00 Z2.5400 
G00 X-38.1000 Y62.2300 
G01 Z-1.9000 F508.00 
G00 Z2.5400 
M05
G00 Z25.4000 
G00 X0.0000 Y0.0000 
M06 T06 (1.3208 )
G01 Z0.0000 F508.00 
M06 
G00 Z2.5400 
M03
G04 P3.000000
G00 X-15.3162 Y46.9900 
G01 Z-1.9000 F508.00 
G00 Z2.5400 
G00 X-20.3200 Y46.9900 
G01 Z-1.9000 F508.00 
G00 Z2.5400 
G00 X-25.3238 Y46.9900 
G01 Z-1.9000 F508.00 
G00 Z2.5400 
G00 X-59.6900 Y49.4284 
G01 Z-1.9000 F508.00 
G00 Z2.5400 
G00 X-59.6900 Y44.3992 
G01 Z-1.9000 F508.00 
G00 Z2.5400 
G00 X-59.6900 Y39.4208 
G01 Z-1.9000 F508.00 
G00 Z2.5400 
G00 X-59.6900 Y34.3916 
G01 Z-1.9000 F508.00 
G00 Z2.5400 
G00 X-59.6900 Y27.8384 
G01 Z-1.9000 F508.00 
G00 Z2.5400 
G00 X-59.6900 Y22.8092 
G01 Z-1.9000 F508.00 
G00 Z2.5400 
G00 X-59.6900 Y17.8308 
G01 Z-1.9000 F508.00 
G00 Z2.5400 
G00 X-59.6900 Y12.8016 
G01 Z-1.9000 F508.00 
G00 Z2.5400 
G00 X-59.6900 Y55.9054 
G01 Z-1.9000 F508.00 
G00 Z2.5400 
G00 X-59.6900 Y60.9346 
G01 Z-1.9000 F508.00 
G00 Z2.5400 
T01 
G00 Z10.0000 
M05
M02
